!!!!SEGMENT: pl-stab--12a--006_raszek-waclaw--missa-solemnis-ex-g-credo.krn
!!!cenid: 18xx:3526
!!!COM: Raszek, Wacław
!!!COM-rismid: pe30020314
!!!CDT: >1848->1848
!!!CNT:
!!!OPR: Missa Solemnis ex G
!!!OTL: Credo
!!!OMV: 006
!!!PDT: 1815
!!!AGN:
!!!SMS-siglum: PL-STAb
!!!SMS-shelfmark: 12a
!!!SMS-shelfwork: M
!!!SMS-variant:
!!!SMS-altvar:
!!!NIFC-rismid: 301050679
!!!URL-scan: https://repozytorium.nifc.pl/islandora/object/pl-stab%3A2464/datastream/PDF/view
!!!ONB-nifc: UWAGA: części Mszy: 1. Kyrie, 2. Gloria, 3. Domine Deus, 4. Cum sancto spiritu, 5. In gloria Dei Patris amen, 6. Credo, 7. Et incarnatus, 8. Et resurrexit, 9. Sanctus, 10. Pleni sunt, 11. Benedictus, 12. Agnus Dei, 13. Dona nobis
!!!OMD: Allo
!!!key: G
**kern	**fba	**kern	**dynam	**kern	**dynam	**kern	**dynam	**kern	**text	**kern	**text	**dynam	**kern	**text	**dynam	**kern	**text	**dynam	**kern	**dynam	**kern	**dynam	**kern	**kern	**dynam
*part12	*part12	*part11	*part11	*part10	*part10	*part9	*part9	*part8	*part8	*part7	*part7	*part7	*part6	*part6	*part6	*part5	*part5	*part5	*part4	*part4	*part3	*part3	*part2	*part1	*part1
*staff12	*staff12	*staff11	*	*staff10	*	*staff9	*	*staff8	*staff8	*staff7	*staff7	*	*staff6	*staff6	*	*staff5	*staff5	*	*staff4	*	*staff3	*	*staff2	*staff1	*
*I"Organo	*	*I"Alto Viola	*	*I"Violino Secundo	*	*I"Violino Primo	*	*I"Baſso	*	*I"Tenore	*	*	*I"Alto	*	*	*I"Canto	*	*	*I"Cornu 2do	*	*I"Cornu 1mo	*	*I"Flauto IIdo	*I"Flauto 1mo	*
*I'org	*	*I'vla	*	*I'vl 2	*	*I'vl 1	*	*I'B	*	*I'T	*	*	*I'A	*	*	*I'S	*	*	*I'cor 2	*	*I'cor 1	*	*I'fl 2	*I'fl 1	*
*Iorgan	*	*Iviola	*	*Ivioln	*	*Ivioln	*	*Ibass	*	*Itenor	*	*	*Ialto	*	*	*Isoprn	*	*	*Icor	*	*Icor	*	*Iflt	*Iflt	*
*ICklav	*	*ICstr	*	*ICstr	*	*ICstr	*	*ICvox	*	*ICvox	*	*	*ICvox	*	*	*ICvox	*	*	*ICbras	*	*ICbras	*	*ICww	*ICww	*
*IGcont	*	*IGripn	*	*IGripn	*	*IGripn	*	*IGcoro	*	*IGcoro	*	*	*IGcoro	*	*	*IGcoro	*	*	*IGripn	*	*IGripn	*	*IGripn	*IGripn	*
*clefF4	*	*clefC3	*	*clefG2	*	*clefG2	*	*clefF4	*	*clefC4	*	*	*clefC3	*	*	*clefC1	*	*	*clefG2	*	*clefG2	*	*clefG2	*clefG2	*
*	*	*	*	*	*	*	*	*	*	*	*	*	*	*	*	*	*	*	*ITrd3c5	*	*ITrd3c5	*	*	*	*
*k[f#]	*	*k[f#]	*	*k[f#]	*	*k[f#]	*	*k[f#]	*	*k[f#]	*	*	*k[f#]	*	*	*k[f#]	*	*	*k[f#]	*	*k[f#]	*	*k[f#]	*k[f#]	*
*G:	*	*G:	*	*G:	*	*G:	*	*G:	*	*G:	*	*	*G:	*	*	*G:	*	*	*G:	*	*G:	*	*G:	*G:	*
*M4/4	*	*M4/4	*	*M4/4	*	*M4/4	*	*M4/4	*	*M4/4	*	*	*M4/4	*	*	*M4/4	*	*	*M4/4	*	*M4/4	*	*M4/4	*M4/4	*
*met(c)	*	*met(c)	*	*met(c)	*	*met(c)	*	*met(c)	*	*met(c)	*	*	*met(c)	*	*	*met(c)	*	*	*met(c)	*	*met(c)	*	*met(c)	*met(c)	*
=1	=1	=1	=1	=1	=1	=1	=1	=1	=1	=1	=1	=1	=1	=1	=1	=1	=1	=1	=1	=1	=1	=1	=1	=1	=1
!LO:TX:a:i:t=Tutti	!	!:global	!	!:global	!	!LO:TX:a:t=Allo	!	!	!	!	!	!	!LO:TX:a:t=Allo	!	!	!LO:TX:a:t=Allo	!	!	!LO:TX:a:t=Allo	!	!LO:TX:a:t=Allo	!	!	!	!
!LO:TX:a:t=Allo	!	!LO:TX:a:t=Allo	!LO:DY:a:t=for	!LO:TX:a:t=Allo	!LO:DY:a:t=for	!.	!LO:DY:a:t-for.:rj	!LO:TX:a:t=Allo	!	!LO:TX:a:t=Allo	!	!	!	!	!LO:DY:a:t=for	!	!	!LO:DY:a:t=for	!	!LO:DY:a:t=for	!	!	!LO:TX:a:t=Allo	!LO:TX:a:t=Allo	!LO:DY:a:t=for
4G\	.	4G\ 4d	f	4G/ 4d 4b	f	4d\ 4b 4gg	f	4G\	Cre-	4B\	Cre-	.	4d\	.	f	4gg\	Cre-	f	4B/	f	4g\	.	4b\	4gg\	f
4G\	.	4G\ 4d	.	4G/ 4d 4b	.	4g/	.	4G\	-do	4B\	-do	.	4d\	-do	.	4g\	-do	.	4B/	.	4g\	.	4b\	4gg\	.
4r	.	4r	.	4r	.	8dd\L	.	4r	.	4r	.	.	4r	.	.	4r	.	.	2r	.	2r	.	4r	4r	.
.	.	.	.	.	.	16ee\L	.	.	.	.	.	.	.	.	.	.	.	.	.	.	.	.	.	.	.
.	.	.	.	.	.	16dd\JJ	.	.	.	.	.	.	.	.	.	.	.	.	.	.	.	.	.	.	.
8r	.	8r	.	8r	.	16cc\LL	.	8r	.	8r	.	.	8r	.	.	8r	.	.	.	.	.	.	8r	8r	.
.	.	.	.	.	.	16b\	.	.	.	.	.	.	.	.	.	.	.	.	.	.	.	.	.	.	.
8C/	65	8c\	.	8e/	.	16a\	.	8C/	in	8A\	in	.	8e\	in	.	8g\	in	.	.	.	.	.	8ee\	8gg\	.
.	.	.	.	.	.	16g\JJ	.	.	.	.	.	.	.	.	.	.	.	.	.	.	.	.	.	.	.
=2	=2	=2	=2	=2	=2	=2	=2	=2	=2	=2	=2	=2	=2	=2	=2	=2	=2	=2	=2	=2	=2	=2	=2	=2	=2
*	*	*	*	*tremolo	*	*	*	*	*	*	*	*	*	*	*	*	*	*	*	*	*	*	*2\right	*	*
!	!	!	!	!	!	!	!	!	!	!	!	!	!	!	!	!	!	!	!	!	!	!LO:DY:a:t=for	!	!	!
8D\L	8: 3	8d\L	.	16d/LL 16dd	.	8f#/L	.	8D\	u-	8A\	u-	.	8d\	u-	.	8f#\	u-	.	8d/L	.	8d/L	f	2dd\	8ff#\L	.
.	.	.	.	16d/ 16dd	.	.	.	.	.	.	.	.	.	.	.	.	.	.	.	.	.	.	.	.	.
8E\	: 3	8e\	.	16d/ 16dd	.	8g/	.	8E\	-num	8d\	-num	.	8d\	-num	.	8g\	-num	.	16d/L	.	16d/L	.	.	8gg\	.
.	.	.	.	16d/ 16dd	.	.	.	.	.	.	.	.	.	.	.	.	.	.	16d/JJ	.	16d/JJ	.	.	.	.
8F#\	: 3	8f#\	.	16d/ 16dd	.	8a/	.	8F#\L	De-	4d\	De-	.	8a\L	De-	.	8a\L	De-	.	8d/L	.	8d/L	.	.	8aa\	.
.	.	.	.	16d/ 16dd	.	.	.	.	.	.	.	.	.	.	.	.	.	.	.	.	.	.	.	.	.
8G\J	: 3	8g\J	.	16d/ 16dd	.	8b/J	.	8G\J	.	.	.	.	8g\J	.	.	8b\J	.	.	8d/J	.	8d/J	.	.	8bb\J	.
.	.	.	.	16d/JJ 16dd	.	.	.	.	.	.	.	.	.	.	.	.	.	.	.	.	.	.	.	.	.
*	*	*	*	*rep	*	*	*	*	*	*	*	*	*	*	*	*	*	*	*tremolo	*	*	*	*	*2\right	*
!	!	!	!	!	!	!	!	!	!	!	!	!	!	!	!	!	!	!	!	!	!LO:TX:t=P:problem:mixed beam	!	!	!	!
8A\L	6 3	8a\L	.	16d/LL 16dd	.	16cc\LL	.	8A\	-um	8d\	-um	.	8a\	-um	.	8cc\	-um	.	8d/L	.	8d/L	.	8dd\L	2ccc\	.
.	.	.	.	16d/ 16dd	.	16ff#\	.	.	.	.	.	.	.	.	.	.	.	.	.	.	.	.	.	.	.
8F#\	_	8d\	.	16d/ 16dd	.	16aa\	.	8F#\	Pa-	8d\	Pa-	.	8a\	Pa-	.	8cc\	Pa-	.	8d/	.	8a\	.	8aa\	.	.
.	.	.	.	16d/ 16dd	.	16gg\JJ	.	.	.	.	.	.	.	.	.	.	.	.	.	.	.	.	.	.	.
8D\	.	8f#\	.	16d/ 16dd	.	16ff#\LL	.	8D\	-trem	8d\	-tre(m)	.	8a\	-trem	.	8cc\	-tre(m)	.	8d/	.	8a\	.	8ff#\	.	.
.	.	.	.	16d/ 16dd	.	16ee\	.	.	.	.	.	.	.	.	.	.	.	.	.	.	.	.	.	.	.
8F#\J	x	8d\J	.	16d/ 16dd	.	16dd\	.	8F#\	o-	8d\	O-	.	8a\	o-	.	8cc\	o-	.	8d/J	.	8a\J	.	8aa\J	.	.
.	.	.	.	16d/JJ 16dd	.	16cc\JJ	.	.	.	.	.	.	.	.	.	.	.	.	.	.	.	.	.	.	.
*	*	*	*	*Xrep	*	*	*	*	*	*	*	*	*	*	*	*	*	*	*	*	*	*	*	*	*
=3	=3	=3	=3	=3	=3	=3	=3	=3	=3	=3	=3	=3	=3	=3	=3	=3	=3	=3	=3	=3	=3	=3	=3	=3	=3
*	*	*	*	*	*	*	*	*	*	*	*	*	*	*	*	*	*	*	*	*	*2\right	*	*	*	*
*	*	*	*	*	*	*	*	*	*	*	*	*	*	*	*	*	*	*	*	*	*tremolo	*	*	*	*
8G\L	8_ 3	8G/L	.	16g/LL	.	8b\L	.	8G\	-mni-	8d\	-mni-	.	8g\	-mni-	.	8b\	-mni-	.	8G/L	.	8g\L	.	2gg\	8bb\L	.
.	.	.	.	16g/	.	.	.	.	.	.	.	.	.	.	.	.	.	.	.	.	.	.	.	.	.
8A\	_ 3	8A/	.	16g/	.	8cc\J	.	8A\	-po-	8c\	-po-	.	8g\	-po-	.	8cc\	-po-	.	8G/	.	8g\	.	.	8ccc\	.
.	.	.	.	16g/	.	.	.	.	.	.	.	.	.	.	.	.	.	.	.	.	.	.	.	.	.
8B\	_ 3	8B/	.	16g/	.	8dd\L	.	8B\L	-ten-	8d\L	-ten-	.	4g\	-ten-	.	8dd\L	-ten-	.	8G/	.	8g\	.	.	8ddd\	.
.	.	.	.	16g/	.	.	.	.	.	.	.	.	.	.	.	.	.	.	.	.	.	.	.	.	.
8c\J	_ 3	8c/J	.	16g/	.	16ee\L	.	8c\J	.	8c\J	.	.	.	.	.	16ee\L	.	.	8G/J	.	8g\J	.	.	8eee\J	.
.	.	.	.	16g/JJ	.	16dd\JJ	.	.	.	.	.	.	.	.	.	16dd\JJ	.	.	.	.	.	.	.	.	.
*	*	*	*	*	*	*	*	*	*	*	*	*	*	*	*	*	*	*	*Xtremolo	*	*Xtremolo	*	*	*	*
!LO:TX:t=P:problem:mixed beam	!	!	!	!	!	!	!	!	!	!	!	!	!	!	!	!	!	!	!	!	!	!	!	!	!
8B\L	6	8B/L	.	16f#/LL	.	8dd\L	.	8B\	-tem	8d\	-te(m)	.	8g\	-tem	.	8dd\	-tem	.	4G/	.	4g\	.	4gg\	4ddd\	.
.	.	.	.	16f#/	.	.	.	.	.	.	.	.	.	.	.	.	.	.	.	.	.	.	.	.	.
8G\	.	8G/	.	16f#/	.	16ee\L	.	8G\	fa-	8d\	fa-	.	8g\	fa-	.	8dd\	fa-	.	.	.	.	.	.	.	.
.	.	.	.	16f#/	.	16dd\JJ	.	.	.	.	.	.	.	.	.	.	.	.	.	.	.	.	.	.	.
8BB/	.	8B/	.	16f#/	.	16cc\LL	.	8BB/	-cto-	8d\	-cto-	.	8d\	-cto-	.	16cc\LL	-cto-	.	4r	.	4r	.	8dd\L	16ccc\LL	.
.	.	.	.	16f#/	.	16b\	.	.	.	.	.	.	.	.	.	16b\JJ	.	.	.	.	.	.	.	16bb\	.
8C/J	65	8c/J	.	16f#/	.	16a\	.	8C/	-rem	8A\	-rem	.	8e\	-rem	.	16a\LL	-rem	.	.	.	.	.	8ee\J	16aa\	.
.	.	.	.	16f#/JJ	.	16g\JJ	.	.	.	.	.	.	.	.	.	16g\JJ	.	.	.	.	.	.	.	16gg\JJ	.
!	!	!	!	!	!	!	!	!LO:LB:g=original	!	!LO:LB:g=original	!	!	!	!	!	!	!	!	!	!	!	!	!	!	!
=4	=4	=4	=4	=4	=4	=4	=4	=4	=4	=4	=4	=4	=4	=4	=4	=4	=4	=4	=4	=4	=4	=4	=4	=4	=4
8D\L	8 3	8d\L	.	16d/LL 16dd	.	8f#'/L	.	8D\	Cae-	8A\	Cae-	.	8d\	Cae-	.	8f#/	Cae-	.	8r	.	8r	.	2dd\	8ff#\L	.
.	.	.	.	16d/ 16dd	.	.	.	.	.	.	.	.	.	.	.	.	.	.	.	.	.	.	.	.	.
8E\	3	8e\	.	16d/ 16dd	.	8g'/	.	16E\	-li	16d\	-li	.	16d\	-li	.	16g\	-li	.	8d/L	.	8d/L	.	.	8gg\	.
.	.	.	.	16d/ 16dd	.	.	.	16E\	et	16d\	et	.	16d\	et	.	16g\	et	.	.	.	.	.	.	.	.
!	!	!	!	!	!	!	!	!	!	!	!	!	!LO:LB:g=original	!	!	!LO:LB:g=original	!	!	!	!	!	!	!	!	!
=-	=-	=-	=-	=-	=-	=-	=-	=-	=-	=-	=-	=-	=-	=-	=-	=-	=-	=-	=-	=-	=-	=-	=-	=-	=-
8F#\	3	8f#\	.	16d/ 16dd	.	8a'/	.	8F#\	ter-	8d\	ter-	.	8a\	ter-	.	8a\	ter-	.	8d/	.	8d/	.	.	8aa\	.
.	.	.	.	16d/ 16dd	.	.	.	.	.	.	.	.	.	.	.	.	.	.	.	.	.	.	.	.	.
8G\J	3	8g\J	.	16d/ 16dd	.	8b'/J	.	8G\	-rae	8d\	-rae	.	8g\	-rae	.	8b\	-rae	.	8d/J	.	8d/J	.	.	8bb\J	.
.	.	.	.	16d/JJ 16dd	.	.	.	.	.	.	.	.	.	.	.	.	.	.	.	.	.	.	.	.	.
*	*	*	*	*rep	*	*	*	*	*	*	*	*	*	*	*	*	*	*	*	*	*	*	*	*	*
8A\L	6 #	8a\L	.	16d/LL 16dd	.	8cc\L	.	8A\L	vi-	4d\	vi-	.	4a\	vi-	.	4cc\	vi-	.	2d/	.	2a\	.	8dd\L	2ccc\	.
.	.	.	.	16d/ 16dd	.	.	.	.	.	.	.	.	.	.	.	.	.	.	.	.	.	.	.	.	.
8F#\	.	8f#\	.	16d/ 16dd	.	16aa\L	.	8F#\J	.	.	.	.	.	.	.	.	.	.	.	.	.	.	8aa\	.	.
.	.	.	.	16d/ 16dd	.	16gg\JJ	.	.	.	.	.	.	.	.	.	.	.	.	.	.	.	.	.	.	.
8D\	6 5	8d\	.	16d/ 16dd	.	16ff#\LL	.	8D\L	-si-	4d\	-si-	.	4a\	-si-	.	4cc\	-si-	.	.	.	.	.	8ff#\	.	.
.	.	.	.	16d/ 16dd	.	16ee\	.	.	.	.	.	.	.	.	.	.	.	.	.	.	.	.	.	.	.
8F#\J	.	8f#\J	.	16d/ 16dd	.	16dd\	.	8F#\J	.	.	.	.	.	.	.	.	.	.	.	.	.	.	8aa\J	.	.
.	.	.	.	16d/JJ 16dd	.	16cc\JJ	.	.	.	.	.	.	.	.	.	.	.	.	.	.	.	.	.	.	.
*	*	*	*	*Xrep	*	*	*	*	*	*	*	*	*	*	*	*	*	*	*	*	*	*	*	*	*
*	*	*	*	*Xtremolo	*	*	*	*	*	*	*	*	*	*	*	*	*	*	*	*	*	*	*	*	*
=5	=5	=5	=5	=5	=5	=5	=5	=5	=5	=5	=5	=5	=5	=5	=5	=5	=5	=5	=5	=5	=5	=5	=5	=5	=5
*2\right	*	*2\right	*	*	*	*	*	*	*	*	*	*	*	*	*	*	*	*	*	*	*	*	*	*	*
*tremolo	*	*tremolo	*	*	*	*	*	*	*	*	*	*	*	*	*	*	*	*	*	*	*	*	*	*	*
8G\L	5-r	8g\L	.	16dd\LL	.	8b\L	.	4G\	-bi-	4d\	-bi-	.	4g\	-bi-	.	4b\	-bi-	.	4g\	.	4b\	.	4gg\	2bb\	.
.	.	.	.	16dd\	.	.	.	.	.	.	.	.	.	.	.	.	.	.	.	.	.	.	.	.	.
8G\	.	8g\	.	16dd\	.	16bb\L	.	.	.	.	.	.	.	.	.	.	.	.	.	.	.	.	.	.	.
.	.	.	.	16dd\JJ	.	16aa\JJ	.	.	.	.	.	.	.	.	.	.	.	.	.	.	.	.	.	.	.
8G\	.	8g\	.	16b\LL	.	16gg\LL	.	8G\	-li-	8B\	-li-	.	8g\	-li-	.	8b\	-li-	.	4r	.	4r	.	4ee\	.	.
.	.	.	.	16b\	.	16ff#\	.	.	.	.	.	.	.	.	.	.	.	.	.	.	.	.	.	.	.
8G\J	.	8g\J	.	16b\	.	16ee\	.	8G\	-um	8B\	-um	.	8g\	-um	.	8b\	-um	.	.	.	.	.	.	.	.
.	.	.	.	16b\JJ	.	16dd\JJ	.	.	.	.	.	.	.	.	.	.	.	.	.	.	.	.	.	.	.
*Xtremolo	*	*	*	*tremolo	*	*	*	*	*	*	*	*	*	*	*	*	*	*	*2\right	*	*	*	*	*	*
8A\L	#	8a\L	.	16e/LL	.	16dd\LL	.	4A\	o-	4A\	o-	.	4e\	o-	.	4cc#X\	O-	.	2a\	.	2a\	.	2dd\	2ccc#X\	.
.	.	.	.	16e/	.	16cc#X\	.	.	.	.	.	.	.	.	.	.	.	.	.	.	.	.	.	.	.
8A\	.	8a\	.	16e/	.	16ee\	.	.	.	.	.	.	.	.	.	.	.	.	.	.	.	.	.	.	.
.	.	.	.	16e/	.	16dd\JJ	.	.	.	.	.	.	.	.	.	.	.	.	.	.	.	.	.	.	.
8c#X\	6 3	8a\	.	16e/	.	16cc#\LL	.	8c#X\	-mni-	8A\	-mni-	.	8g\	-mni-	.	8ee\	-mni-	.	.	.	.	.	.	.	.
.	.	.	.	16e/	.	16b\	.	.	.	.	.	.	.	.	.	.	.	.	.	.	.	.	.	.	.
8c#\J	.	8a\J	.	16e/	.	16a\	.	8c#\	-um	8A\	-um	.	8g\	-um	.	8ee\	-um	.	.	.	.	.	.	.	.
.	.	.	.	16e/JJ	.	16g\JJ	.	.	.	.	.	.	.	.	.	.	.	.	.	.	.	.	.	.	.
*	*	*	*	*Xtremolo	*	*	*	*	*	*	*	*	*	*	*	*	*	*	*	*	*	*	*	*	*
!	!	!	!	!	!	!LO:LB:g=original	!	!	!	!	!	!	!	!	!	!	!	!	!	!	!	!	!	!	!
=6	=6	=6	=6	=6	=6	=6	=6	=6	=6	=6	=6	=6	=6	=6	=6	=6	=6	=6	=6	=6	=6	=6	=6	=6	=6
!	!	!	!	!	!	!LO:TX:t=P:problem:mixed beam	!	!	!	!	!	!	!	!	!	!	!	!	!	!	!	!	!	!	!
8d\L	.	8a\L	.	16d/LL	.	(16f#/LL	.	4d\	et	4A\	et	.	4f#\	et	.	4dd\	et	.	4d/	.	4a\	.	4ff#\	1ddd	.
.	.	.	.	16dd/	.	16dd\)	.	.	.	.	.	.	.	.	.	.	.	.	.	.	.	.	.	.	.
8D\J	.	8a\	.	16d/	.	16dd'\	.	.	.	.	.	.	.	.	.	.	.	.	.	.	.	.	.	.	.
.	.	.	.	16dd/JJ	.	16dd'\JJ	.	.	.	.	.	.	.	.	.	.	.	.	.	.	.	.	.	.	.
*	*	*	*	*rep	*	*	*	*	*	*	*	*	*	*	*	*	*	*	*	*	*	*	*	*	*
8F#\L	6	8a\	.	16d/LL	.	(16ee\LL	.	4F#\	in	4d\	in	.	4d\	in	.	4dd\	in	.	4r	.	4r	.	4dd\	.	.
.	.	.	.	16dd/	.	16dd\)	.	.	.	.	.	.	.	.	.	.	.	.	.	.	.	.	.	.	.
8F#\J	.	8a\J	.	16d/	.	16dd'\	.	.	.	.	.	.	.	.	.	.	.	.	.	.	.	.	.	.	.
.	.	.	.	16dd/JJ	.	16dd'\JJ	.	.	.	.	.	.	.	.	.	.	.	.	.	.	.	.	.	.	.
*	*	*Xtremolo	*	*Xrep	*	*	*	*	*	*	*	*	*	*	*	*	*	*	*	*	*	*	*	*	*
!	!	!LO:LB:g=original	!	!	!	!	!	!	!	!	!	!	!	!	!	!	!	!	!	!	!	!	!	!	!
=-	=-	=-	=-	=-	=-	=-	=-	=-	=-	=-	=-	=-	=-	=-	=-	=-	=-	=-	=-	=-	=-	=-	=-	=-	=-
*	*	*	*	*	*	*	*	*	*^	*	*	*	*	*	*	*	*	*	*	*	*	*	*	*	*
*	*	*	*	*rep	*	*	*	*	*	*	*	*	*	*	*	*	*	*	*	*tremolo	*	*tremolo	*	*	*	*
8G\L	6 3	8g\L	.	16d/LL	.	(16ff#\LL	.	4G\	vi-	[[u-	4B\	vi-	.	4e\	vi-	.	4dd\	vi-	.	8d/L	.	8d/L	.	4ee\	.	.
.	.	.	.	16dd/	.	16ee\)	.	.	.	.	.	.	.	.	.	.	.	.	.	.	.	.	.	.	.	.
8G\	.	8g\	.	16d/	.	16ee'\	.	.	.	.	.	.	.	.	.	.	.	.	.	8d/	.	8d/	.	.	.	.
.	.	.	.	16dd/JJ	.	16ee'\JJ	.	.	.	.	.	.	.	.	.	.	.	.	.	.	.	.	.	.	.	.
*	*	*	*	*Xrep	*	*	*	*	*	*	*	*	*	*	*	*	*	*	*	*	*	*	*	*	*	*
*	*	*	*	*rep	*	*	*	*	*	*	*	*	*	*	*	*	*	*	*	*	*	*	*	*	*	*
8A\	6 4	8a\	.	16d/LL	.	(16gg\LL	.	4A\	-si-	-num]]	4c\	-si-	.	4f#\	-si-	.	4dd\	-si-	.	8d/	.	8d/	.	4gg\	.	.
.	.	.	.	16dd/	.	16ff#\)	.	.	.	.	.	.	.	.	.	.	.	.	.	.	.	.	.	.	.	.
8A\J	.	8a\J	.	16d/	.	16ff#'\	.	.	.	.	.	.	.	.	.	.	.	.	.	8d/J	.	8d/J	.	.	.	.
.	.	.	.	16dd/JJ	.	16ff#'\JJ	.	.	.	.	.	.	.	.	.	.	.	.	.	.	.	.	.	.	.	.
*	*	*	*	*Xrep	*	*	*	*	*	*	*	*	*	*	*	*	*	*	*	*	*	*	*	*	*	*
*	*	*	*	*	*	*	*	*	*v	*v	*	*	*	*	*	*	*	*	*	*	*	*	*	*	*	*
=7	=7	=7	=7	=7	=7	=7	=7	=7	=7	=7	=7	=7	=7	=7	=7	=7	=7	=7	=7	=7	=7	=7	=7	=7	=7
*	*	*	*	*rep	*	*	*	*	*	*	*	*	*	*	*	*	*	*	*	*	*	*	*	*	*
8B\L	6	8b\L	.	16d/LL	.	(16aa\LL	.	8.B\	-bi-	8.B\	-bi-	.	8.g\	-bi-	.	8.dd\	-bi-	.	8d/L	.	8d/L	.	4gg\	2ddd\	.
.	.	.	.	16dd/	.	16gg\)	.	.	.	.	.	.	.	.	.	.	.	.	.	.	.	.	.	.	.
8B\	.	8b\	.	16d/	.	16gg'\	.	.	.	.	.	.	.	.	.	.	.	.	8d/	.	8d/	.	.	.	.
.	.	.	.	16dd/JJ	.	16gg'\JJ	.	16B\	-li-	16B\	-li-	.	16g\	-li-	.	16dd\	-li-	.	.	.	.	.	.	.	.
*	*	*	*	*Xrep	*	*	*	*	*	*	*	*	*	*	*	*	*	*	*	*	*	*	*	*	*
*	*	*	*	*rep	*	*	*	*	*	*	*	*	*	*	*	*	*	*	*	*	*	*	*	*	*
8A\	6 4	8a\	.	16d/LL	.	(16gg\LL	.	4A\	-um	4d\	-um	.	4f#\	-um	.	4dd\	-um	.	8d/	.	8d/	.	4ff#\	.	.
.	.	.	.	16dd/	.	16ff#\)	.	.	.	.	.	.	.	.	.	.	.	.	.	.	.	.	.	.	.
8A\J	.	8a\J	.	16d/	.	16ff#'\	.	.	.	.	.	.	.	.	.	.	.	.	8d/J	.	8d/J	.	.	.	.
.	.	.	.	16dd/JJ	.	16ff#'\JJ	.	.	.	.	.	.	.	.	.	.	.	.	.	.	.	.	.	.	.
*	*	*	*	*Xrep	*	*	*	*	*	*	*	*	*	*	*	*	*	*	*Xtremolo	*	*Xtremolo	*	*	*	*
!LO:LB:g=original	!	!	!	!	!	!	!	!	!	!	!	!	!	!	!	!	!	!	!	!	!	!	!	!	!
=-	=-	=-	=-	=-	=-	=-	=-	=-	=-	=-	=-	=-	=-	=-	=-	=-	=-	=-	=-	=-	=-	=-	=-	=-	=-
*	*	*	*	*2\right	*	*	*	*	*	*	*	*	*	*	*	*	*	*	*	*	*	*	*	*	*
*	*	*	*	*tremolo	*	*	*	*	*	*	*	*	*	*	*	*	*	*	*	*	*	*	*	*	*
8G\L	6	8g\L	.	16b\LL	.	(16ff#\LL	.	8G\	et	8B\	et	.	8g\	et	.	8ee\	et	.	4B/	.	4B/	.	2ee\	4eee\	.
.	.	.	.	16b\	.	16ee\)	.	.	.	.	.	.	.	.	.	.	.	.	.	.	.	.	.	.	.
8G\	.	8g\	.	16b\	.	16ee'\	.	8G\	in	8B\	in	.	8g\	in	.	8ee\	in	.	.	.	.	.	.	.	.
.	.	.	.	16b\	.	16ee'\JJ	.	.	.	.	.	.	.	.	.	.	.	.	.	.	.	.	.	.	.
!	!	!	!	!	!	!	!	!LO:LB:g=original	!	!LO:LB:g=original	!	!	!	!	!	!	!	!	!LO:LB:g=original	!	!	!	!	!	!
=-	=-	=-	=-	=-	=-	=-	=-	=-	=-	=-	=-	=-	=-	=-	=-	=-	=-	=-	=-	=-	=-	=-	=-	=-	=-
8G#X\	6 3	8e\	.	16b\	.	(16ee\LL	.	8G#X\	u-	8B\	u-	.	8e\	u-	.	8ee\	u-	.	4r	.	4r	.	.	4ddd\	.
.	.	.	.	16b\	.	16dd\)	.	.	.	.	.	.	.	.	.	.	.	.	.	.	.	.	.	.	.
8G#\J	.	8e\J	.	16b\	.	16dd'\	.	8G#\	-num	8B\	-num	.	8e\	-num	.	8dd\	-num	.	.	.	.	.	.	.	.
.	.	.	.	16b\JJ	.	16dd'\JJ	.	.	.	.	.	.	.	.	.	.	.	.	.	.	.	.	.	.	.
!	!	!	!	!	!	!	!	!	!	!	!	!	!LO:LB:g=original	!	!	!	!	!	!	!	!	!	!	!LO:LB:g=original	!
=8	=8	=8	=8	=8	=8	=8	=8	=8	=8	=8	=8	=8	=8	=8	=8	=8	=8	=8	=8	=8	=8	=8	=8	=8	=8
!	!	!LO:TX:t=P:problem:mixed beam	!	!	!	!	!	!	!	!	!	!	!	!	!	!	!	!	!	!	!	!	!	!	!
8A\L	.	8e\L	.	16a/LL	.	(16dd\LL	.	8A\L	Do-	8A\L	Do-	.	4e\	Do-	.	4cc#X\	Do-	.	8r	.	8r	.	8ee\L	8ccc#X\L	.
.	.	.	.	16a/	.	16cc#X\)	.	.	.	.	.	.	.	.	.	.	.	.	.	.	.	.	.	.	.
!	!	!	!	!	!	!	!	!LO:SIC:v:s=8c#\J	!	!	!	!	!	!	!	!	!	!	!	!	!	!	!	!	!
8c#X\	#6	8A/	.	16a/	.	16ee'\	.	8c\J	.	8c#X\J	.	.	.	.	.	.	.	.	8a\L	.	8a\L	.	8ee\J	16aa\L	.
.	.	.	.	16a/	.	16ee'\JJ	.	.	.	.	.	.	.	.	.	.	.	.	.	.	.	.	.	16aa\JJ	.
8A\	.	8c#X/	.	16a/	.	16ee\LL	.	8A\	-mi-	8e\	-mi-	.	8a\	-mi-	.	8ee\	-mi-	.	8a\	.	8a\	.	16ee\LL	4aa\	.
.	.	.	.	16a/	.	16ff#\	.	.	.	.	.	.	.	.	.	.	.	.	.	.	.	.	16ff#\	.	.
!	!	!	!	!	!	!	!	!LO:SIC:v:s=8c#\	!	!	!	!	!	!	!	!	!	!	!	!	!	!	!	!	!
8c#\J	6 5	8A/J	.	16a/	.	16ff#\	.	8c\	-num	8c#\	-num	.	8a\	-num	.	8ee\	-nu(m)	.	8a\J	.	8a\J	.	16ff#\	.	.
.	.	.	.	16a/JJ	.	16gg\JJ	.	.	.	.	.	.	.	.	.	.	.	.	.	.	.	.	16gg\JJ	.	.
!	!	!	!	!	!	!	!	!	!	!	!	!	!	!	!	!LO:LB:g=original	!	!	!	!	!LO:LB:g=original	!	!LO:LB:g=original	!	!
=-	=-	=-	=-	=-	=-	=-	=-	=-	=-	=-	=-	=-	=-	=-	=-	=-	=-	=-	=-	=-	=-	=-	=-	=-	=-
8d\L	.	8f#\L	.	16a/LL	.	16ff#\LL	.	8d\	Je-	8d\	Je-	.	8a\	Je-	.	8dd\	Je-	.	2d/	.	2a\	.	4ff#\	2aa\	.
.	.	.	.	16a/	.	16aa\	.	.	.	.	.	.	.	.	.	.	.	.	.	.	.	.	.	.	.
8F#\	6_	8d\	.	16a/	.	16bb\	.	8F#\	-su(m)	8f#\	-sum	.	8a\	-sum	.	8dd\	-sum	.	.	.	.	.	.	.	.
.	.	.	.	16a/	.	16aa\JJ	.	.	.	.	.	.	.	.	.	.	.	.	.	.	.	.	.	.	.
8D\	.	8f#\	.	16a/	.	16gg\LL	.	8D\	Chri-	8d\	Chri-	.	8a\	Chri-	.	8dd\	Chri-	.	.	.	.	.	4dd\	.	.
.	.	.	.	16a/	.	16ff#\	.	.	.	.	.	.	.	.	.	.	.	.	.	.	.	.	.	.	.
8F#\J	x	8d\J	.	16a/	.	16ee\	.	8F#\	-stum	8d\	-stu(m)	.	8a\	-stum	.	8dd\	-stu(m)	.	.	.	.	.	.	.	.
.	.	.	.	16a/JJ	.	16dd\JJ	.	.	.	.	.	.	.	.	.	.	.	.	.	.	.	.	.	.	.
=9	=9	=9	=9	=9	=9	=9	=9	=9	=9	=9	=9	=9	=9	=9	=9	=9	=9	=9	=9	=9	=9	=9	=9	=9	=9
!	!	!LO:TX:t=P:problem:brakujący takt	!	!	!	!	!	!	!	!	!	!	!	!	!	!	!	!	!	!	!	!	!	!	!
8A\L	.	1ryy	.	16a/LL	.	(16dd\LL	.	8A\L	Fi-	4A\	Fi-	.	4a\	Fi-	.	4cc#X\	Fi-	.	8a\L	.	8a\L	.	8cc#X\L	2aa\	.
.	.	.	.	16a/	.	16cc#X\)	.	.	.	.	.	.	.	.	.	.	.	.	.	.	.	.	.	.	.
8c#X\	6	.	.	16a/	.	16ee'\	.	8c#X\J	.	.	.	.	.	.	.	.	.	.	16a\L	.	16a\L	.	8ee\J	.	.
.	.	.	.	16a/	.	16ee'\JJ	.	.	.	.	.	.	.	.	.	.	.	.	16a\JJ	.	16a\JJ	.	.	.	.
8A\	.	.	.	16a/	.	(16ee\LL	.	8A\	-li-	8A\	-li-	.	8a\	-li-	.	8ee\	-li-	.	8a\L	.	8a\L	.	16ee\LL	.	.
.	.	.	.	16a/	.	16ff#\)	.	.	.	.	.	.	.	.	.	.	.	.	.	.	.	.	16ff#\	.	.
8c#\J	6 5	.	.	16a/	.	(16ff#\	.	8c#\	-um	8A\	-um	.	8a\	-um	.	8ee\	-um	.	8a\J	.	8a\J	.	16ff#\	.	.
.	.	.	.	16a/JJ	.	16gg\JJ)	.	.	.	.	.	.	.	.	.	.	.	.	.	.	.	.	16gg\JJ	.	.
8d\L	.	.	.	16a/LL	.	16ff#\LL	.	8d\	De-	8A\	De-	.	8a\	De-	.	8dd\	De-	.	2d/	.	2a\	.	4ff#\	2aa\	.
.	.	.	.	16a/	.	16aa\	.	.	.	.	.	.	.	.	.	.	.	.	.	.	.	.	.	.	.
8F#\	6_	.	.	16a/	.	16bb\	.	8F#\	-i	8d\	-i	.	8a\	-i	.	8dd\	-i	.	.	.	.	.	.	.	.
.	.	.	.	16a/	.	16aa\JJ	.	.	.	.	.	.	.	.	.	.	.	.	.	.	.	.	.	.	.
8D\	.	.	.	16a/	.	16gg\LL	.	8D\	u-	8d\	u-	.	8a\	u-	.	8dd\	u-	.	.	.	.	.	4dd\	.	.
.	.	.	.	16a/	.	16ff#\	.	.	.	.	.	.	.	.	.	.	.	.	.	.	.	.	.	.	.
8F#\J	x	.	.	16a/	.	16ee\	.	8F#\	-ni-	8d\	-ni-	.	8a\	-ni-	.	8dd\	-ni-	.	.	.	.	.	.	.	.
.	.	.	.	16a/JJ	.	16dd\JJ	.	.	.	.	.	.	.	.	.	.	.	.	.	.	.	.	.	.	.
!	!	!	!	!	!	!LO:LB:g=original	!	!	!	!	!	!	!	!	!	!	!	!	!	!	!	!	!	!	!
=10	=10	=10	=10	=10	=10	=10	=10	=10	=10	=10	=10	=10	=10	=10	=10	=10	=10	=10	=10	=10	=10	=10	=10	=10	=10
8A\L	#	8e\L	.	16a/LL	.	8cc#X\L	.	8A\	-ge-	8e\	-ge-	.	8a\	-ge-	.	8cc#X\	-ge-	.	8a\L	.	8a\L	.	8cc#X\L	2aa\	.
.	.	.	.	16a/	.	.	.	.	.	.	.	.	.	.	.	.	.	.	.	.	.	.	.	.	.
8B\	3	8d\	.	16a/	.	8dd\	.	8B\	-ni-	8d\	-ni-	.	8a\	-ni-	.	8dd\	-ni-	.	16a\L	.	16a\L	.	8dd\	.	.
.	.	.	.	16a/	.	.	.	.	.	.	.	.	.	.	.	.	.	.	16a\JJ	.	16a\JJ	.	.	.	.
8c#X\	3	8c#X\	.	16a/	.	8ee\	.	8c#X\L	-tum	8c#X\L	-tum	.	4a\	-tum	.	8ee\L	-tum	.	8a\L	.	8a\L	.	8ee\	.	.
.	.	.	.	16a/	.	.	.	.	.	.	.	.	.	.	.	.	.	.	.	.	.	.	.	.	.
8d\J	3	8d\J	.	16a/	.	8ff#\J	.	8d\J	.	8d\J	.	.	.	.	.	8ff#\J	.	.	8a\J	.	8a\J	.	8ff#\J	.	.
.	.	.	.	16a/JJ	.	.	.	.	.	.	.	.	.	.	.	.	.	.	.	.	.	.	.	.	.
8e\L	3_	8e\L	.	16a/LL	.	16gg\LL	.	8e\	et-	8c#X\	et	.	8a\	et	.	8ee\	Et	.	2a\	.	2a\	.	2ee\	2gg\	.
.	.	.	.	16a/	.	16ff#\	.	.	.	.	.	.	.	.	.	.	.	.	.	.	.	.	.	.	.
8c#\	.	8A\	.	16a/	.	16ee\	.	8c#X\	-ex	8e\	ex	.	8a\	ex	.	8ee\	ex	.	.	.	.	.	.	.	.
.	.	.	.	16a/	.	16dd\JJ	.	.	.	.	.	.	.	.	.	.	.	.	.	.	.	.	.	.	.
!	!	!	!	!	!	!	!	!	!	!LO:LB:g=original	!	!	!	!	!	!	!	!	!	!	!	!	!	!	!
=-	=-	=-	=-	=-	=-	=-	=-	=-	=-	=-	=-	=-	=-	=-	=-	=-	=-	=-	=-	=-	=-	=-	=-	=-	=-
8A\	.	8c#X\	.	16a/	.	16cc#X\LL	.	8A\	Pa-	8c#\	Pa-	.	8a\	Pa-	.	8ee\	Pa-	.	.	.	.	.	.	.	.
.	.	.	.	16a/	.	16b\	.	.	.	.	.	.	.	.	.	.	.	.	.	.	.	.	.	.	.
8c#\J	x	8A\J	.	16a/	.	16a\	.	8c#\	-tre	8e\	-tre	.	8a\	-tre	.	8ee\	-tre	.	.	.	.	.	.	.	.
.	.	.	.	16a/JJ	.	16g\JJ	.	.	.	.	.	.	.	.	.	.	.	.	.	.	.	.	.	.	.
*	*	*	*	*Xtremolo	*	*	*	*	*	*	*	*	*	*	*	*	*	*	*	*	*	*	*	*	*
!	!	!	!	!LO:LB:g=original	!	!	!	!LO:LB:g=original	!	!	!	!	!LO:LB:g=original	!	!	!	!	!	!	!	!	!	!	!	!
=11	=11	=11	=11	=11	=11	=11	=11	=11	=11	=11	=11	=11	=11	=11	=11	=11	=11	=11	=11	=11	=11	=11	=11	=11	=11
!	!	!	!	!	!	!LO:TX:t=P:problem:mixed beam	!	!	!	!	!	!	!	!	!	!	!	!	!	!	!	!	!	!	!
8d\L	.	8d\L	.	16a/LL	.	16f#/LL	.	8d\	na-	8d\	na-	.	8a\	na-	.	8dd\	na-	.	4d/	.	4a\	.	4dd\	8ff#\L	.
.	.	.	.	16a/	.	16dd\	.	.	.	.	.	.	.	.	.	.	.	.	.	.	.	.	.	.	.
8F#\	6	8d\	.	16a/	.	16ff#\	.	8F#\	-tum	8d\	-tum	.	8a\	-tum	.	8dd\	-tum	.	.	.	.	.	.	8ddd\J	.
.	.	.	.	16a/JJ	.	16dd\JJ	.	.	.	.	.	.	.	.	.	.	.	.	.	.	.	.	.	.	.
8G\	3_	8d\	.	16b\LL	.	16cc\LL	.	8G\	an-	8d\	an-	.	8b\	an-	.	8dd\	an-	.	4g\	.	4b\	.	4dd\	4ddd\	.
.	.	.	.	16b\	.	16b\	.	.	.	.	.	.	.	.	.	.	.	.	.	.	.	.	.	.	.
8G\J	.	8g\J	.	16b\	.	16gg\	.	8G\	-te	8B\	-te	.	8b\	-te	.	8dd\	-te	.	.	.	.	.	.	.	.
.	.	.	.	16b\JJ	.	16ee\JJ	.	.	.	.	.	.	.	.	.	.	.	.	.	.	.	.	.	.	.
!	!	!	!	!	!	!	!	!	!	!	!	!	!	!	!	!LO:LB:g=original	!	!	!	!	!	!	!	!	!
=-	=-	=-	=-	=-	=-	=-	=-	=-	=-	=-	=-	=-	=-	=-	=-	=-	=-	=-	=-	=-	=-	=-	=-	=-	=-
*	*	*tremolo	*	*	*	*	*	*	*	*	*	*	*	*	*	*	*	*	*tremolo	*	*tremolo	*	*	*	*
!LO:TX:t=P:problem:mixed beam	!	!	!	!	!	!	!	!	!	!	!	!	!	!	!	!	!	!	!	!	!	!	!	!	!
8A\L	6 4	8a\L	.	16A/LL	.	4dd\	.	4A\	o-	4A\	o-	.	4f#\	o-	.	4dd\	o-	.	8a\L	.	8a\L	.	4ff#\	4ddd\	.
.	.	.	.	16f#/	.	.	.	.	.	.	.	.	.	.	.	.	.	.	.	.	.	.	.	.	.
8A\	.	8a\	.	16A/	.	.	.	.	.	.	.	.	.	.	.	.	.	.	8a\	.	8a\	.	.	.	.
.	.	.	.	16f#/JJ	.	.	.	.	.	.	.	.	.	.	.	.	.	.	.	.	.	.	.	.	.
8AA/	5 #	8a\	.	16A/LL	.	4eeT\	.	8A\	-mni-	8A\	-mni-	.	8e\	-mni-	.	8cc#X\	-mni-	.	8a\	.	8a\	.	4ee\	4ccc#X\	.
.	.	.	.	16g/	.	.	.	.	.	.	.	.	.	.	.	.	.	.	.	.	.	.	.	.	.
8AA/J	.	8a\J	.	16A/	.	.	.	8A\	-a	8A\	-a	.	8e\	-a	.	8cc#\	-a	.	8a\J	.	8a\J	.	.	.	.
.	.	.	.	16g/JJ	.	.	.	.	.	.	.	.	.	.	.	.	.	.	.	.	.	.	.	.	.
*	*	*Xtremolo	*	*	*	*	*	*	*	*	*	*	*	*	*	*	*	*	*Xtremolo	*	*Xtremolo	*	*	*	*
=12	=12	=12	=12	=12	=12	=12	=12	=12	=12	=12	=12	=12	=12	=12	=12	=12	=12	=12	=12	=12	=12	=12	=12	=12	=12
!	!	!	!	!LO:TX:t=P:problem:1 takt zapisany repetycją	!	!	!	!	!	!	!	!	!	!	!	!	!	!	!	!	!	!	!	!	!
8D\L	.	8d\L	.	16a/LL	.	(16dd\LL	.	4F#\	o-	8A\L	o-	.	4a\	sae-	.	4dd\	o-	.	4d/	.	4a\	.	8ff#\L	4ddd\	.
.	.	.	.	16a/	.	16ddd\)	.	.	.	.	.	.	.	.	.	.	.	.	.	.	.	.	.	.	.
8F#\	6	8f#\	.	16a/	.	16aa'\	.	.	.	8d\J	.	.	.	.	.	.	.	.	.	.	.	.	8dd\	.	.
.	.	.	.	16a/JJ	.	16aa'\JJ	.	.	.	.	.	.	.	.	.	.	.	.	.	.	.	.	.	.	.
8G\	3	8g\	.	16b\LL	.	16bb\LL	.	8G\	-mni-	8d\	-mni-	.	8b\	-cu-	.	8dd\	-mni-	.	4g\	.	4b\	.	8dd\	4bb\	.
.	.	.	.	16b\	.	16gg\	.	.	.	.	.	.	.	.	.	.	.	.	.	.	.	.	.	.	.
8G\J	6	8g\J	.	16b\	.	16ff#\	.	8G\	-a	8B\	-a	.	8b\	-la	.	8dd\	-a	.	.	.	.	.	8gg\J	.	.
.	.	.	.	16b\JJ	.	16ee\JJ	.	.	.	.	.	.	.	.	.	.	.	.	.	.	.	.	.	.	.
*	*	*	*	*	*	*	*	*	*	*	*	*	*	*	*	*	*	*	*tremolo	*	*tremolo	*	*	*	*
!LO:TX:t=P:problem:mixed beam	!	!LO:TX:t=P:problem:mixed beam	!	!	!	!	!	!	!	!	!	!	!	!	!	!	!	!	!	!	!	!	!	!	!
8A\L	6 4	8a\L	.	16A/LL	.	4dd\	.	4.A\	ſae-	4.A\	sae-	.	(>4f#\	sae-	.	4dd\	ſae-	.	8a\L	.	8a\L	.	4ff#\	4ddd\	.
.	.	.	.	16f#/	.	.	.	.	.	.	.	.	.	.	.	.	.	.	.	.	.	.	.	.	.
8A\	.	8a\	.	16A/	.	.	.	.	.	.	.	.	.	.	.	.	.	.	8a\	.	8a\	.	.	.	.
.	.	.	.	16f#/JJ	.	.	.	.	.	.	.	.	.	.	.	.	.	.	.	.	.	.	.	.	.
8AA/	5 #	8c#X/	.	16A/LL	.	4eeT\	.	.	.	.	.	.	8e\)	.	.	[8cc#X\	-cu-	.	8a\	.	8a\	.	4ee\	4ccc#X\	.
.	.	.	.	16g/	.	.	.	.	.	.	.	.	.	.	.	.	.	.	.	.	.	.	.	.	.
8AA/J	.	8c#/J	.	16A/	.	.	.	8A\	-cu-	8A\	-cu-	.	8e\	-cu-	.	8cc#\]	.	.	8a\J	.	8a\J	.	.	.	.
.	.	.	.	16g/JJ	.	.	.	.	.	.	.	.	.	.	.	.	.	.	.	.	.	.	.	.	.
*	*	*	*	*	*	*	*	*	*	*	*	*	*	*	*	*	*	*	*Xtremolo	*	*Xtremolo	*	*	*	*
=13	=13	=13	=13	=13	=13	=13	=13	=13	=13	=13	=13	=13	=13	=13	=13	=13	=13	=13	=13	=13	=13	=13	=13	=13	=13
8D\L	.	8d\L	.	8f#/L	.	8dd\L	.	4D\	-la	4A\	-la	.	4f#\	-la	.	4dd\	-la	.	8d/L	.	8a\L	.	8ff#\L	8ddd\L	.
8D\J	.	8d\J	.	8f#/	.	8dd\	.	.	.	.	.	.	.	.	.	.	.	.	8d/	.	8a\	.	8ff#\	8ddd\	.
8D\L	.	8d\L	.	8f#/J	.	8dd\J	.	4r	.	4r	.	.	4r	.	.	4r	.	.	8d/J	.	8a\J	.	8ff#\J	8ddd\J	.
32A\LL	.	32a\LL	.	8r	.	8r	.	.	.	.	.	.	.	.	.	.	.	.	8r	.	8r	.	8r	8r	.
32G\	.	32g\	.	.	.	.	.	.	.	.	.	.	.	.	.	.	.	.	.	.	.	.	.	.	.
32F#\	.	32f#\	.	.	.	.	.	.	.	.	.	.	.	.	.	.	.	.	.	.	.	.	.	.	.
32E\JJJ	.	32e\JJJ	.	.	.	.	.	.	.	.	.	.	.	.	.	.	.	.	.	.	.	.	.	.	.
4D\	.	4d\	.	2r	.	8r	.	2r	.	8r	.	.	2r	.	.	2r	.	.	2r	.	2r	.	2r	2r	.
!	!	!	!	!	!	!	!LO:DY:a	!	!	!LO:TX:a:i:t=Solo	!	!	!	!	!	!	!	!	!	!	!	!	!	!	!
.	.	.	.	.	.	8a\L	p	.	.	8A\	De-	.	.	.	.	.	.	.	.	.	.	.	.	.	.
4r	.	4r	.	.	.	8dd\	.	.	.	8d\	-um	.	.	.	.	.	.	.	.	.	.	.	.	.	.
.	.	.	.	.	.	8dd\J	.	.	.	8d\	De	.	.	.	.	.	.	.	.	.	.	.	.	.	.
!LO:LB:g=original	!	!	!	!	!	!	!	!	!	!	!	!	!	!	!	!	!	!	!	!	!	!	!	!	!
=14	=14	=14	=14	=14	=14	=14	=14	=14	=14	=14	=14	=14	=14	=14	=14	=14	=14	=14	=14	=14	=14	=14	=14	=14	=14
!LO:TX:a:i:t=Solo	!	!	!LO:DY:a	!	!	!	!	!	!	!	!	!	!	!	!	!	!	!	!	!	!	!	!	!	!
8r	.	8r	p	8r	.	4dd\	.	00r	.	4d\	De-	.	00r	.	.	00r	.	.	00r	.	00r	.	00r	00r	.
!	!	!	!	!	!LO:DY:a:rj	!	!	!	!	!	!	!	!	!	!	!	!	!	!	!	!	!	!	!	!
8F#\L	.	8A/L	.	8a/L	p	.	.	.	.	.	.	.	.	.	.	.	.	.	.	.	.	.	.	.	.
!	!	!	!	!	!	!	!	!	!	!LO:LB:g=original	!	!	!	!	!	!	!	!	!	!	!	!	!	!	!
=-	=-	=-	=-	=-	=-	=-	=-	=-	=-	=-	=-	=-	=-	=-	=-	=-	=-	=-	=-	=-	=-	=-	=-	=-	=-
8E\	6	8A/	.	8g/	.	8cc#X\L	.	.	.	8c#X\L	-o	.	.	.	.	.	.	.	.	.	.	.	.	.	.
!	!	!	!	!	!	!LO:SIC:v:s=8dd\J	!	!	!	!	!	!	!	!	!	!	!	!	!	!	!	!	!	!	!
8D\J	6\	8A/J	.	8f#/J	.	8ee\J	.	.	.	8d\J	.	.	.	.	.	.	.	.	.	.	.	.	.	.	.
4C#X/	6	4A/	.	4e/	.	8ee\L	.	.	.	8e\	lu-	.	.	.	.	.	.	.	.	.	.	.	.	.	.
.	.	.	.	.	.	8a\	.	.	.	8A\	-men	.	.	.	.	.	.	.	.	.	.	.	.	.	.
4r	.	4r	.	4r	.	8ee\	.	.	.	8e\	de	.	.	.	.	.	.	.	.	.	.	.	.	.	.
.	.	.	.	.	.	8ee\J	.	.	.	8e\	lu-	.	.	.	.	.	.	.	.	.	.	.	.	.	.
=15	=15	=15	=15	=15	=15	=15	=15	=15	=15	=15	=15	=15	=15	=15	=15	=15	=15	=15	=15	=15	=15	=15	=15	=15	=15
8r	.	8r	.	8r	.	4ee\	.	.	.	4e\	-mi-	.	.	.	.	.	.	.	.	.	.	.	.	.	.
!LO:SIC:v:s=8C#	!	!	!	!	!	!	!	!	!	!	!	!	!	!	!	!	!	!	!	!	!	!	!	!	!
8C/L	6 3	8c#X\L	.	8a/L	.	.	.	.	.	.	.	.	.	.	.	.	.	.	.	.	.	.	.	.	.
8BB/	3	8B\	.	8a/	.	8dd\L	.	.	.	8d\	-ne	.	.	.	.	.	.	.	.	.	.	.	.	.	.
!LO:SIC:v:s=8C#	!	!	!	!	!	!	!	!	!	!	!	!	!	!	!	!	!	!	!	!	!	!	!	!	!
8C/J	3	8c#\J	.	8a/J	.	8ee\J	.	.	.	8e\	De-	.	.	.	.	.	.	.	.	.	.	.	.	.	.
!	!	!LO:LB:g=original	!	!	!	!	!	!	!	!	!	!	!	!	!	!	!	!	!	!	!	!	!	!	!
=-	=-	=-	=-	=-	=-	=-	=-	=-	=-	=-	=-	=-	=-	=-	=-	=-	=-	=-	=-	=-	=-	=-	=-	=-	=-
8D\L	.	8d\L	.	8f#/L	.	8ff#\L	.	.	.	8f#\L	-um	.	.	.	.	.	.	.	.	.	.	.	.	.	.
8E\J	8	8e\J	.	8g/J	.	8ee\	.	.	.	8e\J	.	.	.	.	.	.	.	.	.	.	.	.	.	.	.
4F#\	63	4f#\	.	4a/	.	8dd\	.	.	.	8d\	ve-	.	.	.	.	.	.	.	.	.	.	.	.	.	.
!	!	!	!	!	!	!	!	!	!	!LO:SIC:v:s=8c#\	!	!	!	!	!	!	!	!	!	!	!	!	!	!	!
.	.	.	.	.	.	8cc#X\J	.	.	.	8c\	.	.	.	.	.	.	.	.	.	.	.	.	.	.	.
=16	=16	=16	=16	=16	=16	=16	=16	=16	=16	=16	=16	=16	=16	=16	=16	=16	=16	=16	=16	=16	=16	=16	=16	=16	=16
8G\L	3_	8g\L	.	4d/	.	4b\	.	.	.	4B\	-rum	.	.	.	.	.	.	.	.	.	.	.	.	.	.
8F#\	.	8f#\	.	.	.	.	.	.	.	.	.	.	.	.	.	.	.	.	.	.	.	.	.	.	.
!	!	!	!	!LO:TX:t=P:problem:niewyraźne źródło	!	!	!	!	!	!	!	!	!	!	!	!	!	!	!	!	!	!	!	!	!
8E\	6\	8e\	.	8a/L	.	8cc\L	.	.	.	8c\	de	.	.	.	.	.	.	.	.	.	.	.	.	.	.
8D\J	8	8d\J	.	8g/J	.	8dd\J	.	.	.	8d\	De-	.	.	.	.	.	.	.	.	.	.	.	.	.	.
8C#X\L	3	8c#X\L	.	8e/L	.	8ee\L	.	.	.	8e\	-o	.	.	.	.	.	.	.	.	.	.	.	.	.	.
8D\J	3	8d\J	.	8f#/J	.	8dd\	.	.	.	8d\	.	.	.	.	.	.	.	.	.	.	.	.	.	.	.
4E\	65	4e\	.	4g/	.	8cc\	.	.	.	8cn\L	ve-	.	.	.	.	.	.	.	.	.	.	.	.	.	.
.	.	.	.	.	.	8b\J	.	.	.	8B\J	.	.	.	.	.	.	.	.	.	.	.	.	.	.	.
!	!	!	!	!	!	!LO:LB:g=original	!	!	!	!LO:LB:g=original	!	!	!	!	!	!	!	!	!	!	!	!	!	!	!
=17	=17	=17	=17	=17	=17	=17	=17	=17	=17	=17	=17	=17	=17	=17	=17	=17	=17	=17	=17	=17	=17	=17	=17	=17	=17
!	!	!	!	!	!	!LO:TX:t=P:problem:mixed beam	!	!	!	!	!	!	!	!	!	!	!	!	!	!	!	!	!	!	!
4F#\	#	4f#\	.	4c#X/	.	8a#X/L	.	.	.	4A#X\	-ro	.	.	.	.	.	.	.	.	.	.	.	.	.	.
.	.	.	.	.	.	8ff#\	.	.	.	.	.	.	.	.	.	.	.	.	.	.	.	.	.	.	.
4r	.	4r	.	4r	.	8ff#\	.	.	.	4r	.	.	.	.	.	.	.	.	.	.	.	.	.	.	.
.	.	.	.	.	.	8ff#\J	.	.	.	.	.	.	.	.	.	.	.	.	.	.	.	.	.	.	.
8BB/L	.	8d\L	.	16f#/KL	.	8ff#\L	.	.	.	8f#\L	ge-	.	.	.	.	.	.	.	.	.	.	.	.	.	.
.	.	.	.	8f#/	.	.	.	.	.	.	.	.	.	.	.	.	.	.	.	.	.	.	.	.	.
8D/	6	8B\	.	.	.	16gg\L	.	.	.	16g\L	.	.	.	.	.	.	.	.	.	.	.	.	.	.	.
.	.	.	.	8f#/	.	16ff#\JJ	.	.	.	16f#\JJ	.	.	.	.	.	.	.	.	.	.	.	.	.	.	.
8BB/	.	8d\	.	.	.	16ee\LL	.	.	.	16e\LL	-ni-	.	.	.	.	.	.	.	.	.	.	.	.	.	.
.	.	.	.	8f#/	.	16dd\	.	.	.	16d\	.	.	.	.	.	.	.	.	.	.	.	.	.	.	.
8D/J	.	8B\J	.	.	.	16cc\	.	.	.	16c\	.	.	.	.	.	.	.	.	.	.	.	.	.	.	.
.	.	.	.	16f#/Jk	.	16b\JJ	.	.	.	16B\JJ	.	.	.	.	.	.	.	.	.	.	.	.	.	.	.
=18	=18	=18	=18	=18	=18	=18	=18	=18	=18	=18	=18	=18	=18	=18	=18	=18	=18	=18	=18	=18	=18	=18	=18	=18	=18
!	!	!	!	!	!	!	!	!LO:TX:a:i:t=Solo	!	!	!	!	!	!	!	!	!	!	!	!	!	!	!	!	!
8F#\L	#	8F#/L	.	16f#/KL	.	8a#X\L	.	8F#\	Ge-	8A#X\	-tum	.	00r	.	.	00r	.	.	00r	.	00r	.	00r	00r	.
.	.	.	.	8f#/	.	.	.	.	.	.	.	.	.	.	.	.	.	.	.	.	.	.	.	.	.
8G#X\	3	8G#X/	.	.	.	8b\	.	8G#X\	-ni-	8B\	non	.	.	.	.	.	.	.	.	.	.	.	.	.	.
.	.	.	.	8f#/	.	.	.	.	.	.	.	.	.	.	.	.	.	.	.	.	.	.	.	.	.
8A#X\	.	8A#X/	.	.	.	8cc\	.	8A#X\	-tum	8c\	fa-	.	.	.	.	.	.	.	.	.	.	.	.	.	.
.	.	.	.	8f#/	.	.	.	.	.	.	.	.	.	.	.	.	.	.	.	.	.	.	.	.	.
8B\J	.	8B/J	.	.	.	8dd\J	.	8B\	non	8d\	-ctum	.	.	.	.	.	.	.	.	.	.	.	.	.	.
.	.	.	.	16f#/Jk	.	.	.	.	.	.	.	.	.	.	.	.	.	.	.	.	.	.	.	.	.
!LO:SIC:v:s=8c#\L	!	!LO:SIC:v:s=8c#/L	!	!	!	!LO:TX:t=P:problem:mixed beam	!	!	!	!	!	!	!	!	!	!	!	!	!	!	!	!	!	!	!
8c\L	3	8c/L	.	16f#/KL	.	16ee\LL	.	4c#X\	fa-	4e\	con-	.	.	.	.	.	.	.	.	.	.	.	.	.	.
.	.	.	.	8f#/	.	16e/	.	.	.	.	.	.	.	.	.	.	.	.	.	.	.	.	.	.	.
8F#\	#	8A#X/	.	.	.	16ee\	.	.	.	.	.	.	.	.	.	.	.	.	.	.	.	.	.	.	.
.	.	.	.	8f#/	.	16ee\JJ	.	.	.	.	.	.	.	.	.	.	.	.	.	.	.	.	.	.	.
!	!	!LO:SIC:v:s=8c#/	!	!	!	!LO:TX:t=P:problem:mixed beam	!	!	!	!	!	!	!	!	!	!	!	!	!	!	!	!	!	!	!
8A#X\	.	8c/	.	.	.	16ee\LL	.	4c#\	-ctum	4e\	-sub-	.	.	.	.	.	.	.	.	.	.	.	.	.	.
.	.	.	.	8f#/	.	16e/	.	.	.	.	.	.	.	.	.	.	.	.	.	.	.	.	.	.	.
!	!	!LO:SIC:v:s=8c#.J	!	!	!	!	!	!	!	!	!	!	!	!	!	!	!	!	!	!	!	!	!	!	!
8F#\J	.	8c/J	.	.	.	16ee\	.	.	.	.	.	.	.	.	.	.	.	.	.	.	.	.	.	.	.
!	!	!	!	!LO:TX:b:i:t=V&colon;Cito	!	!	!	!	!	!	!	!	!	!	!	!	!	!	!	!	!	!	!	!	!
.	.	.	.	16f#/Jk	.	16ee\JJ	.	.	.	.	.	.	.	.	.	.	.	.	.	.	.	.	.	.	.
!	!	!	!	!LO:PB:g=original	!	!	!	!LO:LB:g=original	!	!	!	!	!	!	!	!	!	!	!	!	!	!	!	!	!
=19	=19	=19	=19	=19	=19	=19	=19	=19	=19	=19	=19	=19	=19	=19	=19	=19	=19	=19	=19	=19	=19	=19	=19	=19	=19
!	!	!	!	!	!	!LO:TX:t=P:problem:mixed beam	!	!	!	!	!	!	!	!	!	!	!	!	!	!	!	!	!	!	!
8B\L	n	8B/L	.	16f#/KL	.	16dd\LL	.	8B\	con-	4d\	-stan-	.	.	.	.	.	.	.	.	.	.	.	.	.	.
.	.	.	.	8f#/	.	16f#/	.	.	.	.	.	.	.	.	.	.	.	.	.	.	.	.	.	.	.
8d\	.	8d/	.	.	.	16dd\	.	8B\	-sub-	.	.	.	.	.	.	.	.	.	.	.	.	.	.	.	.
.	.	.	.	8f#/	.	16dd\JJ	.	.	.	.	.	.	.	.	.	.	.	.	.	.	.	.	.	.	.
*	*	*	*	*	*	*rep	*	*	*	*	*	*	*	*	*	*	*	*	*	*	*	*	*	*	*
!	!	!	!	!	!	!LO:TX:t=P:problem:mixed beam	!	!	!	!	!	!	!	!	!	!	!	!	!	!	!	!	!	!	!
8B\	.	8B/	.	.	.	16dd\LL	.	8B\	-stan-	4d\	-ti-	.	.	.	.	.	.	.	.	.	.	.	.	.	.
.	.	.	.	8f#/	.	16f#/	.	.	.	.	.	.	.	.	.	.	.	.	.	.	.	.	.	.	.
8An\J	.	8An/J	.	.	.	16dd\	.	8B\	-ti-	.	.	.	.	.	.	.	.	.	.	.	.	.	.	.	.
.	.	.	.	16f#/Jk	.	16dd\JJ	.	.	.	.	.	.	.	.	.	.	.	.	.	.	.	.	.	.	.
*	*	*	*	*	*	*Xrep	*	*2\right	*	*2\right	*	*	*	*	*	*	*	*	*	*	*	*	*	*	*
!	!	!	!	!	!	!LO:TX:t=P:problem:mixed beam	!	!	!	!	!	!	!	!	!	!	!	!	!	!	!	!	!	!	!
8G#X\L	6 5	8G#X/L	.	16e/KL	.	16dd\LL	.	2B\	-a-	2d\	-a-	.	.	.	.	.	.	.	.	.	.	.	.	.	.
.	.	.	.	8e/	.	16e/	.	.	.	.	.	.	.	.	.	.	.	.	.	.	.	.	.	.	.
8B\	.	8B/	.	.	.	16dd\	.	.	.	.	.	.	.	.	.	.	.	.	.	.	.	.	.	.	.
.	.	.	.	8e/	.	16dd\JJ	.	.	.	.	.	.	.	.	.	.	.	.	.	.	.	.	.	.	.
*	*	*	*	*	*	*rep	*	*	*	*	*	*	*	*	*	*	*	*	*	*	*	*	*	*	*
!	!	!	!	!	!	!LO:TX:t=P:problem:mixed beam	!	!	!	!	!	!	!	!	!	!	!	!	!	!	!	!	!	!	!
8E\	.	8D/	.	.	.	16dd\LL	.	.	.	.	.	.	.	.	.	.	.	.	.	.	.	.	.	.	.
.	.	.	.	8e/	.	16e/	.	.	.	.	.	.	.	.	.	.	.	.	.	.	.	.	.	.	.
8G#\J	.	8G#/J	.	.	.	16dd\	.	.	.	.	.	.	.	.	.	.	.	.	.	.	.	.	.	.	.
.	.	.	.	16e/Jk	.	16dd\JJ	.	.	.	.	.	.	.	.	.	.	.	.	.	.	.	.	.	.	.
*	*	*	*	*	*	*Xrep	*	*	*	*	*	*	*	*	*	*	*	*	*	*	*	*	*	*	*
=20	=20	=20	=20	=20	=20	=20	=20	=20	=20	=20	=20	=20	=20	=20	=20	=20	=20	=20	=20	=20	=20	=20	=20	=20	=20
!	!	!	!	!	!	!LO:TX:t=P:problem:mixed beam	!	!	!	!	!	!	!	!	!	!	!	!	!	!	!	!	!	!	!
8A\L	n	8An/L	.	16e/KL	.	16ccn\LL	.	2A\	-lem	2cn\	-lem	.	.	.	.	.	.	.	.	.	.	.	.	.	.
.	.	.	.	8e/	.	16e/	.	.	.	.	.	.	.	.	.	.	.	.	.	.	.	.	.	.	.
8cn\	.	8cn/	.	.	.	16cc\	.	.	.	.	.	.	.	.	.	.	.	.	.	.	.	.	.	.	.
.	.	.	.	8e/	.	16cc\JJ	.	.	.	.	.	.	.	.	.	.	.	.	.	.	.	.	.	.	.
*	*	*	*	*	*	*rep	*	*	*	*	*	*	*	*	*	*	*	*	*	*	*	*	*	*	*
!	!	!	!	!	!	!LO:TX:t=P:problem:mixed beam	!	!	!	!	!	!	!	!	!	!	!	!	!	!	!	!	!	!	!
8A\	.	8A/	.	.	.	16ccn\LL	.	.	.	.	.	.	.	.	.	.	.	.	.	.	.	.	.	.	.
.	.	.	.	8e/	.	16e/	.	.	.	.	.	.	.	.	.	.	.	.	.	.	.	.	.	.	.
8G\J	.	8G/J	.	.	.	16cc\	.	.	.	.	.	.	.	.	.	.	.	.	.	.	.	.	.	.	.
.	.	.	.	16e/Jk	.	16cc\JJ	.	.	.	.	.	.	.	.	.	.	.	.	.	.	.	.	.	.	.
*	*	*	*	*	*	*Xrep	*	*	*	*	*	*	*	*	*	*	*	*	*	*	*	*	*	*	*
!LO:LB:g=original	!	!	!	!	!	!	!	!	!	!	!	!	!	!	!	!	!	!	!	!	!	!	!	!	!
=-	=-	=-	=-	=-	=-	=-	=-	=-	=-	=-	=-	=-	=-	=-	=-	=-	=-	=-	=-	=-	=-	=-	=-	=-	=-
!	!	!	!	!	!	!LO:TX:t=P:problem:mixed beam	!	!	!	!	!	!	!	!	!	!	!	!	!	!	!	!	!	!	!
8F#\L	6 5	8F#/L	.	16d/KL	.	16cc\LL	.	2A\	Pa-	2c\	Pa-	.	.	.	.	.	.	.	.	.	.	.	.	.	.
.	.	.	.	8d/	.	16d/	.	.	.	.	.	.	.	.	.	.	.	.	.	.	.	.	.	.	.
8An\	.	8A/	.	.	.	16cc\	.	.	.	.	.	.	.	.	.	.	.	.	.	.	.	.	.	.	.
.	.	.	.	8d/	.	16cc\JJ	.	.	.	.	.	.	.	.	.	.	.	.	.	.	.	.	.	.	.
*	*	*	*	*	*	*rep	*	*	*	*	*	*	*	*	*	*	*	*	*	*	*	*	*	*	*
!	!	!	!	!	!	!LO:TX:t=P:problem:mixed beam	!	!	!	!	!	!	!	!	!	!	!	!	!	!	!	!	!	!	!
8D\	.	8D/	.	.	.	16cc\LL	.	.	.	.	.	.	.	.	.	.	.	.	.	.	.	.	.	.	.
.	.	.	.	8d/	.	16d/	.	.	.	.	.	.	.	.	.	.	.	.	.	.	.	.	.	.	.
8F#\J	.	8F#/J	.	.	.	16cc\	.	.	.	.	.	.	.	.	.	.	.	.	.	.	.	.	.	.	.
.	.	.	.	16d/Jk	.	16cc\JJ	.	.	.	.	.	.	.	.	.	.	.	.	.	.	.	.	.	.	.
*	*	*	*	*	*	*Xrep	*	*	*	*	*	*	*	*	*	*	*	*	*	*	*	*	*	*	*
=21	=21	=21	=21	=21	=21	=21	=21	=21	=21	=21	=21	=21	=21	=21	=21	=21	=21	=21	=21	=21	=21	=21	=21	=21	=21
!	!	!	!	!	!	!LO:TX:t=P:problem:mixed beam	!	!	!	!	!	!	!	!	!	!	!	!	!	!	!	!	!	!	!
8G\L	.	8G/L	.	16d/KL	.	16b\LL	.	2G\	-tri	2B\	-tri	.	.	.	.	.	.	.	.	.	.	.	.	.	.
.	.	.	.	8d/	.	16d/	.	.	.	.	.	.	.	.	.	.	.	.	.	.	.	.	.	.	.
8B\	.	8B/J	.	.	.	16b\	.	.	.	.	.	.	.	.	.	.	.	.	.	.	.	.	.	.	.
.	.	.	.	8d/	.	16b\JJ	.	.	.	.	.	.	.	.	.	.	.	.	.	.	.	.	.	.	.
*	*	*	*	*	*	*rep	*	*	*	*	*	*	*	*	*	*	*	*	*	*	*	*	*	*	*
!	!	!	!	!	!	!LO:TX:t=P:problem:mixed beam	!	!	!	!	!	!	!	!	!	!	!	!	!	!	!	!	!	!	!
8G\	.	8g\L	.	.	.	16b\LL	.	.	.	.	.	.	.	.	.	.	.	.	.	.	.	.	.	.	.
.	.	.	.	8d/	.	16d/	.	.	.	.	.	.	.	.	.	.	.	.	.	.	.	.	.	.	.
8F#\J	.	8f#\J	.	.	.	16b\	.	.	.	.	.	.	.	.	.	.	.	.	.	.	.	.	.	.	.
.	.	.	.	16d/Jk	.	16b\JJ	.	.	.	.	.	.	.	.	.	.	.	.	.	.	.	.	.	.	.
*	*	*	*	*	*	*Xrep	*	*	*	*	*	*	*	*	*	*	*	*	*	*	*	*	*	*	*
!	!	!	!	!	!	!LO:TX:t=P:problem:mixed beam	!	!	!	!	!	!	!	!	!	!	!	!	!	!	!	!	!	!	!
8E\L	5	8e\L	.	16c/KL	.	16b\LL	.	4G\	per	4B\	per	.	.	.	.	.	.	.	.	.	.	.	.	.	.
.	.	.	.	8c/	.	16c/	.	.	.	.	.	.	.	.	.	.	.	.	.	.	.	.	.	.	.
8G\	.	8g\	.	.	.	16b\	.	.	.	.	.	.	.	.	.	.	.	.	.	.	.	.	.	.	.
.	.	.	.	8c/	.	16b\JJ	.	.	.	.	.	.	.	.	.	.	.	.	.	.	.	.	.	.	.
*	*	*	*	*	*	*rep	*	*	*	*	*	*	*	*	*	*	*	*	*	*	*	*	*	*	*
!	!	!	!	!	!	!LO:TX:t=P:problem:mixed beam	!	!	!	!	!	!	!	!	!	!	!	!	!	!	!	!	!	!	!
8C\	.	8c\	.	.	.	16b\LL	.	4G\	que(m)	4B\	quem	.	.	.	.	.	.	.	.	.	.	.	.	.	.
.	.	.	.	8c/	.	16c/	.	.	.	.	.	.	.	.	.	.	.	.	.	.	.	.	.	.	.
8E\J	.	8e\J	.	.	.	16b\	.	.	.	.	.	.	.	.	.	.	.	.	.	.	.	.	.	.	.
.	.	.	.	16c/Jk	.	16b\JJ	.	.	.	.	.	.	.	.	.	.	.	.	.	.	.	.	.	.	.
*	*	*	*	*	*	*Xrep	*	*	*	*	*	*	*	*	*	*	*	*	*	*	*	*	*	*	*
!	!	!	!	!	!	!	!	!	!	!LO:LB:g=original	!	!	!	!	!	!	!	!	!	!	!	!	!	!	!
=22	=22	=22	=22	=22	=22	=22	=22	=22	=22	=22	=22	=22	=22	=22	=22	=22	=22	=22	=22	=22	=22	=22	=22	=22	=22
!	!	!	!	!	!	!LO:TX:t=P:problem:mixed beam	!	!	!	!	!	!	!	!	!	!	!	!	!	!	!	!	!	!	!
8F#\L	3	8f#\L	.	16c/KL	.	16a\LL	.	4F#\	o-	4A\	o-	.	00r	.	.	00r	.	.	00r	.	00r	.	00r	00r	.
.	.	.	.	8c/	.	16c/	.	.	.	.	.	.	.	.	.	.	.	.	.	.	.	.	.	.	.
8A\	_	8a\	.	.	.	16a\	.	.	.	.	.	.	.	.	.	.	.	.	.	.	.	.	.	.	.
.	.	.	.	8c/	.	16a\JJ	.	.	.	.	.	.	.	.	.	.	.	.	.	.	.	.	.	.	.
*	*	*	*	*	*	*rep	*	*	*	*	*	*	*	*	*	*	*	*	*	*	*	*	*	*	*
!	!	!	!	!	!	!LO:TX:t=P:problem:mixed beam	!	!	!	!	!	!	!	!	!	!	!	!	!	!	!	!	!	!	!
8F#\	.	8f#\	.	.	.	16a\LL	.	8F#\	-mni-	8A\	-mni-	.	.	.	.	.	.	.	.	.	.	.	.	.	.
.	.	.	.	8c/	.	16c/	.	.	.	.	.	.	.	.	.	.	.	.	.	.	.	.	.	.	.
8E\J	.	8e\J	.	.	.	16a\	.	8F#\	-a	8A\	-a	.	.	.	.	.	.	.	.	.	.	.	.	.	.
.	.	.	.	16c/Jk	.	16a\JJ	.	.	.	.	.	.	.	.	.	.	.	.	.	.	.	.	.	.	.
*	*	*	*	*	*	*Xrep	*	*	*	*	*	*	*	*	*	*	*	*	*	*	*	*	*	*	*
!	!	!	!	!	!	!LO:LB:g=original	!	!	!	!	!	!	!	!	!	!	!	!	!	!	!	!	!	!	!
=-	=-	=-	=-	=-	=-	=-	=-	=-	=-	=-	=-	=-	=-	=-	=-	=-	=-	=-	=-	=-	=-	=-	=-	=-	=-
8D#X\L	6 5	8d#X\L	.	16B/KL	.	16a/LL	.	4.F#\	fa-	4.A\	fa-	.	.	.	.	.	.	.	.	.	.	.	.	.	.
.	.	.	.	8B/	.	16B/	.	.	.	.	.	.	.	.	.	.	.	.	.	.	.	.	.	.	.
8F#\	_	8f#\	.	.	.	16a/	.	.	.	.	.	.	.	.	.	.	.	.	.	.	.	.	.	.	.
.	.	.	.	8B/	.	16a/JJ	.	.	.	.	.	.	.	.	.	.	.	.	.	.	.	.	.	.	.
*	*	*	*	*	*	*rep	*	*	*	*	*	*	*	*	*	*	*	*	*	*	*	*	*	*	*
8BB\	.	8B\	.	.	.	16a/LL	.	.	.	.	.	.	.	.	.	.	.	.	.	.	.	.	.	.	.
.	.	.	.	8B/	.	16B/	.	.	.	.	.	.	.	.	.	.	.	.	.	.	.	.	.	.	.
8D#X\J	x	8d#\J	.	.	.	16a/	.	8F#\	-cta	8A\	-cta	.	.	.	.	.	.	.	.	.	.	.	.	.	.
.	.	.	.	16B/Jk	.	16a/JJ	.	.	.	.	.	.	.	.	.	.	.	.	.	.	.	.	.	.	.
*	*	*	*	*	*	*Xrep	*	*	*	*	*	*	*	*	*	*	*	*	*	*	*	*	*	*	*
!	!	!LO:LB:g=original	!	!	!	!	!	!	!	!	!	!	!	!	!	!	!	!	!	!	!	!	!	!	!
=23	=23	=23	=23	=23	=23	=23	=23	=23	=23	=23	=23	=23	=23	=23	=23	=23	=23	=23	=23	=23	=23	=23	=23	=23	=23
*	*	*	*	*tremolo	*	*	*	*	*	*	*	*	*	*	*	*	*	*	*	*	*	*	*	*	*
8E\L	3	8e\L	.	16B/LL	.	8g/L	.	8E\	sunt	8G/	sunt	.	.	.	.	.	.	.	.	.	.	.	.	.	.
.	.	.	.	16B/	.	.	.	.	.	.	.	.	.	.	.	.	.	.	.	.	.	.	.	.	.
8F#\	3	8f#\	.	16B/	.	8a/J	.	8A\L	fa-	8r	.	.	.	.	.	.	.	.	.	.	.	.	.	.	.
.	.	.	.	16B/	.	.	.	.	.	.	.	.	.	.	.	.	.	.	.	.	.	.	.	.	.
8G\	3	8g\	.	16B/	.	8b\L	.	8B\J	.	8r	.	.	.	.	.	.	.	.	.	.	.	.	.	.	.
.	.	.	.	16B/	.	.	.	.	.	.	.	.	.	.	.	.	.	.	.	.	.	.	.	.	.
8E\J	3	8e\J	.	16B/	.	8ee\J	.	8G\	-cta	8e\	per	.	.	.	.	.	.	.	.	.	.	.	.	.	.
.	.	.	.	16B/JJ	.	.	.	.	.	.	.	.	.	.	.	.	.	.	.	.	.	.	.	.	.
8BB/L	#	8B\L	.	16B/LL	.	16dd#X\LL	.	8F#\	sunt	8d#X\	quem	.	.	.	.	.	.	.	.	.	.	.	.	.	.
.	.	.	.	16B/	.	16ee\	.	.	.	.	.	.	.	.	.	.	.	.	.	.	.	.	.	.	.
8C#X/	3	8c#X\	.	16B/	.	16ee\	.	8r	.	8e\	o-	.	.	.	.	.	.	.	.	.	.	.	.	.	.
.	.	.	.	16B/	.	16ff#\JJ	.	.	.	.	.	.	.	.	.	.	.	.	.	.	.	.	.	.	.
8D#X/	3_	8d#X\	.	16B/	.	16ff#\LL	.	4r	.	16f#\LL	-mni-	.	.	.	.	.	.	.	.	.	.	.	.	.	.
.	.	.	.	16B/	.	16dd#\	.	.	.	16d#X\	.	.	.	.	.	.	.	.	.	.	.	.	.	.	.
8BB/J	.	8B\J	.	16B/	.	16b\	.	.	.	16B\	.	.	.	.	.	.	.	.	.	.	.	.	.	.	.
.	.	.	.	16B/JJ	.	16a\JJ	.	.	.	16A\JJ	.	.	.	.	.	.	.	.	.	.	.	.	.	.	.
!	!	!	!	!	!	!	!	!LO:LB:g=original	!	!	!	!	!	!	!	!	!	!	!	!	!	!	!	!	!
=24	=24	=24	=24	=24	=24	=24	=24	=24	=24	=24	=24	=24	=24	=24	=24	=24	=24	=24	=24	=24	=24	=24	=24	=24	=24
8E\L	x	8e\L	.	16B/LL	.	8g/L	.	8r	.	8G\	-a	.	.	.	.	.	.	.	.	.	.	.	.	.	.
.	.	.	.	16B/	.	.	.	.	.	.	.	.	.	.	.	.	.	.	.	.	.	.	.	.	.
.	.	.	.	.	.	8qqb/	.	.	.	.	.	.	.	.	.	.	.	.	.	.	.	.	.	.	.
*	*	*	*	*	*	*	*	*	*ij	*	*	*	*	*	*	*	*	*	*	*	*	*	*	*	*
8F#\	.	8f#\	.	16B/	.	16a/L	.	8A\L	fa-	8r	.	.	.	.	.	.	.	.	.	.	.	.	.	.	.
.	.	.	.	16B/	.	32g/L	.	.	.	.	.	.	.	.	.	.	.	.	.	.	.	.	.	.	.
.	.	.	.	.	.	32a/JJJ	.	.	.	.	.	.	.	.	.	.	.	.	.	.	.	.	.	.	.
8G\	.	8g\	.	16B/	.	8g\L	.	8B\J	.	8r	.	.	.	.	.	.	.	.	.	.	.	.	.	.	.
.	.	.	.	16B/	.	.	.	.	.	.	.	.	.	.	.	.	.	.	.	.	.	.	.	.	.
8E\J	.	8e\J	.	16B/	.	8ee\J	.	8G\	-cta	8e\L	per	.	.	.	.	.	.	.	.	.	.	.	.	.	.
.	.	.	.	16B/JJ	.	.	.	.	.	.	.	.	.	.	.	.	.	.	.	.	.	.	.	.	.
8BB/L	#	8B\L	.	16B/LL	.	16dd#X\LL	.	8F#\	sunt	8d#X\J	.	.	.	.	.	.	.	.	.	.	.	.	.	.	.
*	*	*	*	*	*	*	*	*	*Xij	*	*	*	*	*	*	*	*	*	*	*	*	*	*	*	*
.	.	.	.	16B/	.	16b\	.	.	.	.	.	.	.	.	.	.	.	.	.	.	.	.	.	.	.
8C#X/	3	8c#X\	.	16B/	.	16ee\	.	8r	.	8e\	quem	.	.	.	.	.	.	.	.	.	.	.	.	.	.
.	.	.	.	16B/	.	16b\JJ	.	.	.	.	.	.	.	.	.	.	.	.	.	.	.	.	.	.	.
!	!	!	!	!	!	!LO:TX:t=P:problem:mixed beam	!	!	!	!	!	!	!	!	!	!	!	!	!	!	!	!	!	!	!
8D#X/	6	8d#X\	.	16B/	.	16ff#\LL	.	4r	.	8f#\	o-	.	.	.	.	.	.	.	.	.	.	.	.	.	.
.	.	.	.	16B/	.	16a/	.	.	.	.	.	.	.	.	.	.	.	.	.	.	.	.	.	.	.
8BB/J	7	8B\J	.	16B/	.	16b/	.	.	.	8A/	-mni-	.	.	.	.	.	.	.	.	.	.	.	.	.	.
.	.	.	.	16B/JJ	.	16a/JJ	.	.	.	.	.	.	.	.	.	.	.	.	.	.	.	.	.	.	.
*	*	*	*	*Xtremolo	*	*	*	*	*	*	*	*	*	*	*	*	*	*	*	*	*	*	*	*	*
=25	=25	=25	=25	=25	=25	=25	=25	=25	=25	=25	=25	=25	=25	=25	=25	=25	=25	=25	=25	=25	=25	=25	=25	=25	=25
!	!	!	!	!	!	!LO:TX:t=P:problem:mixed beam	!	!	!	!	!	!	!	!	!	!	!	!	!	!	!	!	!	!	!
8E\L	.	8e\L	.	16B/LL	.	16e/LL	.	4r	.	4G/	-a	.	.	.	.	.	.	.	.	.	.	.	.	.	.
.	.	.	.	16g/	.	16ee\	.	.	.	.	.	.	.	.	.	.	.	.	.	.	.	.	.	.	.
8E\	.	8e\	.	16g/	.	16ee\	.	.	.	.	.	.	.	.	.	.	.	.	.	.	.	.	.	.	.
.	.	.	.	16g/JJ	.	16ee\JJ	.	.	.	.	.	.	.	.	.	.	.	.	.	.	.	.	.	.	.
*	*	*	*	*tremolo	*	*	*	*	*	*	*	*	*	*	*	*	*	*	*	*	*	*	*	*	*
8c\	.	8cn\	.	16g/LL	.	16ee\LL	.	4G\	fa-	2e\	fa-	.	.	.	.	.	.	.	.	.	.	.	.	.	.
.	.	.	.	16g/	.	16ee\	.	.	.	.	.	.	.	.	.	.	.	.	.	.	.	.	.	.	.
8c\J	.	8c\J	.	16g/	.	16ee\	.	.	.	.	.	.	.	.	.	.	.	.	.	.	.	.	.	.	.
.	.	.	.	16g/JJ	.	16ee\JJ	.	.	.	.	.	.	.	.	.	.	.	.	.	.	.	.	.	.	.
*	*	*	*	*	*	*tremolo	*	*	*	*	*	*	*	*	*	*	*	*	*	*	*	*	*	*	*
8A\L	6 5	8c\L	.	16f#/LL	.	16ee\LL	.	4F#\	.	.	.	.	.	.	.	.	.	.	.	.	.	.	.	.	.
.	.	.	.	16f#/	.	16ee\	.	.	.	.	.	.	.	.	.	.	.	.	.	.	.	.	.	.	.
8A\	.	8c\	.	16f#/	.	16ee\	.	.	.	.	.	.	.	.	.	.	.	.	.	.	.	.	.	.	.
.	.	.	.	16f#/	.	16ee\JJ	.	.	.	.	.	.	.	.	.	.	.	.	.	.	.	.	.	.	.
8B\	#	8B\	.	16f#/	.	16dd#X\LL	.	4F#\	-cta	4d#X\	-cta	.	.	.	.	.	.	.	.	.	.	.	.	.	.
.	.	.	.	16f#/	.	16dd#\	.	.	.	.	.	.	.	.	.	.	.	.	.	.	.	.	.	.	.
8B\J	.	8B\J	.	16f#/	.	16dd#\	.	.	.	.	.	.	.	.	.	.	.	.	.	.	.	.	.	.	.
.	.	.	.	16f#/JJ	.	16dd#\JJ	.	.	.	.	.	.	.	.	.	.	.	.	.	.	.	.	.	.	.
*	*	*	*	*Xtremolo	*	*Xtremolo	*	*	*	*	*	*	*	*	*	*	*	*	*	*	*	*	*	*	*
!	!	!	!	!	!	!	!	!	!	!LO:LB:g=original	!	!	!	!	!	!	!	!	!	!	!	!	!	!	!
=26	=26	=26	=26	=26	=26	=26	=26	=26	=26	=26	=26	=26	=26	=26	=26	=26	=26	=26	=26	=26	=26	=26	=26	=26	=26
4E\	.	8B/	.	8g/	.	16ee\LL	.	4G\	sunt	4e\	sunt	.	0r	.	.	0r	.	.	0r	.	0r	.	0r	0r	.
.	.	.	.	.	.	16gg#X\	.	.	.	.	.	.	.	.	.	.	.	.	.	.	.	.	.	.	.
.	.	8r	.	8r	.	16bb\	.	.	.	.	.	.	.	.	.	.	.	.	.	.	.	.	.	.	.
.	.	.	.	.	.	16aa\JJ	.	.	.	.	.	.	.	.	.	.	.	.	.	.	.	.	.	.	.
4r	.	4r	.	4r	.	16gg#\LL	.	4r	.	4r	.	.	.	.	.	.	.	.	.	.	.	.	.	.	.
.	.	.	.	.	.	16ffn\	.	.	.	.	.	.	.	.	.	.	.	.	.	.	.	.	.	.	.
.	.	.	.	.	.	16ee\	.	.	.	.	.	.	.	.	.	.	.	.	.	.	.	.	.	.	.
.	.	.	.	.	.	16dd\JJ	.	.	.	.	.	.	.	.	.	.	.	.	.	.	.	.	.	.	.
8A\L	3	8A/L	.	4e/	.	4cc\	.	2r	.	2r	.	.	.	.	.	.	.	.	.	.	.	.	.	.	.
16c\L	.	16c/L	.	.	.	.	.	.	.	.	.	.	.	.	.	.	.	.	.	.	.	.	.	.	.
16B\JJ	.	16B/JJ	.	.	.	.	.	.	.	.	.	.	.	.	.	.	.	.	.	.	.	.	.	.	.
!LO:LB:g=original	!	!	!	!	!	!	!	!	!	!	!	!	!	!	!	!	!	!	!	!	!	!	!	!	!
=-	=-	=-	=-	=-	=-	=-	=-	=-	=-	=-	=-	=-	=-	=-	=-	=-	=-	=-	=-	=-	=-	=-	=-	=-	=-
16A\LL	_	16A/LL	.	4cc\	.	4aa\	.	.	.	.	.	.	.	.	.	.	.	.	.	.	.	.	.	.	.
16G\	.	16G/	.	.	.	.	.	.	.	.	.	.	.	.	.	.	.	.	.	.	.	.	.	.	.
16F#\	.	16A/	.	.	.	.	.	.	.	.	.	.	.	.	.	.	.	.	.	.	.	.	.	.	.
16E\JJ	.	16G/JJ	.	.	.	.	.	.	.	.	.	.	.	.	.	.	.	.	.	.	.	.	.	.	.
!	!	!	!	!LO:LB:g=original	!	!	!	!	!	!	!	!	!	!	!	!	!	!	!	!	!	!	!	!	!
=27	=27	=27	=27	=27	=27	=27	=27	=27	=27	=27	=27	=27	=27	=27	=27	=27	=27	=27	=27	=27	=27	=27	=27	=27	=27
8D\L	6 5	4d\	.	4cc\	.	4aa\	.	0r	.	0r	.	.	.	.	.	.	.	.	.	.	.	.	.	.	.
16E\L	.	.	.	.	.	.	.	.	.	.	.	.	.	.	.	.	.	.	.	.	.	.	.	.	.
16F#\JJ	.	.	.	.	.	.	.	.	.	.	.	.	.	.	.	.	.	.	.	.	.	.	.	.	.
8G\L	.	4d\	.	4b\	.	4gg\	.	.	.	.	.	.	.	.	.	.	.	.	.	.	.	.	.	.	.
8F#\J	.	.	.	.	.	.	.	.	.	.	.	.	.	.	.	.	.	.	.	.	.	.	.	.	.
8E\L	6 3	8e\L	.	16b\KL	.	16gg\KL	.	.	.	.	.	.	.	.	.	.	.	.	.	.	.	.	.	.	.
.	.	.	.	8b\	.	8gg\	.	.	.	.	.	.	.	.	.	.	.	.	.	.	.	.	.	.	.
8G\	.	8g\	.	.	.	.	.	.	.	.	.	.	.	.	.	.	.	.	.	.	.	.	.	.	.
.	.	.	.	8b\	.	8gg\	.	.	.	.	.	.	.	.	.	.	.	.	.	.	.	.	.	.	.
8E\	.	8e\	.	.	.	.	.	.	.	.	.	.	.	.	.	.	.	.	.	.	.	.	.	.	.
.	.	.	.	8b\	.	8gg\	.	.	.	.	.	.	.	.	.	.	.	.	.	.	.	.	.	.	.
8D\J	.	8d\J	.	.	.	.	.	.	.	.	.	.	.	.	.	.	.	.	.	.	.	.	.	.	.
.	.	.	.	16b\Jk	.	16gg\Jk	.	.	.	.	.	.	.	.	.	.	.	.	.	.	.	.	.	.	.
!	!	!	!	!	!	!LO:LB:g=original	!	!	!	!	!	!	!	!	!	!	!	!	!	!	!	!	!	!	!
=28	=28	=28	=28	=28	=28	=28	=28	=28	=28	=28	=28	=28	=28	=28	=28	=28	=28	=28	=28	=28	=28	=28	=28	=28	=28
8C/L	6 3	8c\L	.	16a/KL	.	16gg\KL	.	.	.	.	.	.	1r	.	.	1r	.	.	1r	.	1r	.	1r	1r	.
.	.	.	.	8a/	.	8gg\	.	.	.	.	.	.	.	.	.	.	.	.	.	.	.	.	.	.	.
8C/	_	8e\	.	.	.	.	.	.	.	.	.	.	.	.	.	.	.	.	.	.	.	.	.	.	.
.	.	.	.	8a/	.	8gg\	.	.	.	.	.	.	.	.	.	.	.	.	.	.	.	.	.	.	.
8C#X/	.	8c#X\	.	.	.	.	.	.	.	.	.	.	.	.	.	.	.	.	.	.	.	.	.	.	.
.	.	.	.	8a/	.	8gg\	.	.	.	.	.	.	.	.	.	.	.	.	.	.	.	.	.	.	.
8C#/J	x	8e\J	.	.	.	.	.	.	.	.	.	.	.	.	.	.	.	.	.	.	.	.	.	.	.
.	.	.	.	16a/Jk	.	16gg\Jk	.	.	.	.	.	.	.	.	.	.	.	.	.	.	.	.	.	.	.
8D\L	.	8d\L	.	8a/L	.	8ff#\L	.	.	.	.	.	.	.	.	.	.	.	.	.	.	.	.	.	.	.
8d\J	n	8d\J	.	8f#/	.	8dd\	.	.	.	.	.	.	.	.	.	.	.	.	.	.	.	.	.	.	.
16D|</LL	.	16d\LL	.	8f#/J	.	8dd\J	.	.	.	.	.	.	.	.	.	.	.	.	.	.	.	.	.	.	.
16C#X|</	.	16cn\	.	.	.	.	.	.	.	.	.	.	.	.	.	.	.	.	.	.	.	.	.	.	.
16BB|</	.	16B\	.	8r	.	8r	.	.	.	.	.	.	.	.	.	.	.	.	.	.	.	.	.	.	.
16AA|</JJ	.	16A\JJ	.	.	.	.	.	.	.	.	.	.	.	.	.	.	.	.	.	.	.	.	.	.	.
=29	=29	=29	=29	=29	=29	=29	=29	=29	=29	=29	=29	=29	=29	=29	=29	=29	=29	=29	=29	=29	=29	=29	=29	=29	=29
!LO:TX:a:i:t=Tutti	!	!	!	!	!LO:DY:a:t=for	!	!LO:DY:a:t=for:rj	!	!	!LO:TX:a:i:t=Tutti	!	!	!	!	!	!	!	!	!	!	!	!	!	!	!
4GG/	.	4G/	.	4d/ 4b	f	4d/ 4b 4gg	f	4G\	Cre-	4B\	Cre-	.	4d\	Cre-	.	4gg\	Cre-	.	4B/	.	4g\	.	4b\	4gg\	.
4G\	.	4g\	.	4g/	.	4g/	.	4G\	-do	4B\	-do	.	4d\	-do	.	4g\	-do	.	4B/	.	4g\	.	4b\	4gg\	.
4r	.	4r	.	4r	.	8dd\L	.	4r	.	4r	.	.	4r	.	.	4r	.	.	2r	.	2r	.	4r	4r	.
.	.	.	.	.	.	16ee\L	.	.	.	.	.	.	.	.	.	.	.	.	.	.	.	.	.	.	.
.	.	.	.	.	.	16dd\JJ	.	.	.	.	.	.	.	.	.	.	.	.	.	.	.	.	.	.	.
8r	.	8r	.	8r	.	16cc\LL	.	8r	.	8r	.	.	8r	.	.	8r	.	.	.	.	.	.	8r	8r	.
.	.	.	.	.	.	16b\	.	.	.	.	.	.	.	.	.	.	.	.	.	.	.	.	.	.	.
8C/	6 5	8c\	.	8e/	.	16a\	.	8C/	qui	8c\	qui	.	8e\	qui	.	8g\	qui	.	.	.	.	.	8ee\	8gg\	.
.	.	.	.	.	.	16g\JJ	.	.	.	.	.	.	.	.	.	.	.	.	.	.	.	.	.	.	.
!	!	!LO:LB:g=original	!	!	!	!	!	!	!	!	!	!	!LO:LB:g=original	!	!	!	!	!	!LO:LB:g=original	!	!	!	!	!LO:PB:g=original	!
=30	=30	=30	=30	=30	=30	=30	=30	=30	=30	=30	=30	=30	=30	=30	=30	=30	=30	=30	=30	=30	=30	=30	=30	=30	=30
8D\L	8: 3	8d\L	.	16d/LL	.	8f#/L	.	8D\L	pro-	4d\	pro-	.	4d\	pro-	.	8f#/L	pro-	.	8d/L	.	8d/L	.	2dd\	8ff#\L	.
.	.	.	.	16d/	.	.	.	.	.	.	.	.	.	.	.	.	.	.	.	.	.	.	.	.	.
8E\	: 3	8e\	.	16d/	.	8g/	.	8E\J	.	.	.	.	.	.	.	8g/J	.	.	16d/L	.	16d/L	.	.	8gg\	.
.	.	.	.	16d/JJ	.	.	.	.	.	.	.	.	.	.	.	.	.	.	16d/JJ	.	16d/JJ	.	.	.	.
*	*	*	*	*rep	*	*	*	*	*	*	*	*	*	*	*	*	*	*	*	*	*	*	*	*	*
8F#\	: 3	8f#\	.	16d/LL	.	8a/	.	8F#\	-pter	8d\	-pter	.	8a\	-pter	.	8a\	-pter	.	8d/L	.	8d/L	.	.	8aa\	.
.	.	.	.	16d/	.	.	.	.	.	.	.	.	.	.	.	.	.	.	.	.	.	.	.	.	.
8G\J	: 3	8g\J	.	16d/	.	8b/J	.	8G\	nos	8d\	nos	.	8g\	nos	.	8b\	nos	.	8d/J	.	8d/J	.	.	8bb\J	.
.	.	.	.	16d/JJ	.	.	.	.	.	.	.	.	.	.	.	.	.	.	.	.	.	.	.	.	.
*	*	*	*	*Xrep	*	*	*	*	*	*	*	*	*	*	*	*	*	*	*	*	*	*	*	*	*
*	*	*	*	*rep	*	*	*	*	*	*	*	*	*	*	*	*	*	*	*	*	*	*	*	*	*
8A\L	6	8a\L	.	16d/LL	.	16cc\LL	.	8A\L	ho-	4.d\	ho-	.	4.a\	ho-	.	4.cc\	ho-	.	2d/	.	2a\	.	2dd\	2ccc\	.
.	.	.	.	16d/	.	16ff#\	.	.	.	.	.	.	.	.	.	.	.	.	.	.	.	.	.	.	.
8F#\	6 5	8d\	.	16d/	.	16aa\	.	8F#\	.	.	.	.	.	.	.	.	.	.	.	.	.	.	.	.	.
.	.	.	.	16d/JJ	.	16gg\JJ	.	.	.	.	.	.	.	.	.	.	.	.	.	.	.	.	.	.	.
*	*	*	*	*Xrep	*	*	*	*	*	*	*	*	*	*	*	*	*	*	*	*	*	*	*	*	*
*	*	*	*	*rep	*	*	*	*	*	*	*	*	*	*	*	*	*	*	*	*	*	*	*	*	*
8D\	.	8f#\	.	16d/LL	.	16ff#\LL	.	8D\J	.	.	.	.	.	.	.	.	.	.	.	.	.	.	.	.	.
.	.	.	.	16d/	.	16ee\	.	.	.	.	.	.	.	.	.	.	.	.	.	.	.	.	.	.	.
8F#\J	.	8d\J	.	16d/	.	16dd\	.	8F#\	-mi-	8d\	-mi-	.	8a\	-mi-	.	8cc\	-mi-	.	.	.	.	.	.	.	.
.	.	.	.	16d/JJ	.	16cc\JJ	.	.	.	.	.	.	.	.	.	.	.	.	.	.	.	.	.	.	.
*	*	*	*	*Xrep	*	*	*	*	*	*	*	*	*	*	*	*	*	*	*	*	*	*	*	*	*
!	!	!	!	!	!	!	!	!LO:LB:g=original	!	!	!	!	!	!	!	!LO:LB:g=original	!	!	!	!	!LO:LB:g=original	!	!	!	!
=31	=31	=31	=31	=31	=31	=31	=31	=31	=31	=31	=31	=31	=31	=31	=31	=31	=31	=31	=31	=31	=31	=31	=31	=31	=31
*	*	*	*	*tremolo	*	*	*	*	*	*	*	*	*	*	*	*	*	*	*	*	*	*	*	*	*
8G\L	8: 3	8G/L	.	16a/LL	.	8b\L	.	8G\	-nes	8d\	-nes	.	8g\	-nes	.	8b\	-nes	.	8G/L	.	8g\L	.	2gg\	8bb\L	.
.	.	.	.	16a/	.	.	.	.	.	.	.	.	.	.	.	.	.	.	.	.	.	.	.	.	.
8A\	: 3	8A/	.	16a/	.	8cc\J	.	8A\	et	8c\	et	.	8g\	et	.	8cc\	et	.	16G/L	.	16g\L	.	.	8ccc\	.
.	.	.	.	16a/	.	.	.	.	.	.	.	.	.	.	.	.	.	.	16G/JJ	.	16g\JJ	.	.	.	.
8B\	: 3	8B/	.	16a/	.	8dd\L	.	8B\	pro-	8d\	pro-	.	8g\	pro-	.	8dd\	pro-	.	8G/L	.	8g\L	.	.	8ddd\	.
.	.	.	.	16a/	.	.	.	.	.	.	.	.	.	.	.	.	.	.	.	.	.	.	.	.	.
8c\J	.: 3	8c/J	.	16a/	.	16ee\L	.	8c\	-pter	8c\	-pter	.	8g\	-pter	.	16ee\LL	-pter	.	8G/J	.	8g\J	.	.	8eee\J	.
.	.	.	.	16a/JJ	.	16dd\JJ	.	.	.	.	.	.	.	.	.	16dd\JJ	.	.	.	.	.	.	.	.	.
!LO:TX:t=P:problem:mixed beam	!	!	!	!	!	!	!	!	!	!	!	!	!	!	!	!	!	!	!	!	!	!	!	!	!
8B\L	6	8B/L	.	16g/LL	.	8dd\L	.	8B\L	no-	4c\	no-	.	4g\	no-	.	4dd\	no-	.	4G/	.	4g\	.	4gg\	4ddd\	.
.	.	.	.	16g/	.	.	.	.	.	.	.	.	.	.	.	.	.	.	.	.	.	.	.	.	.
8G\	.	8G/	.	16g/	.	16ee\L	.	8G\J	.	.	.	.	.	.	.	.	.	.	.	.	.	.	.	.	.
.	.	.	.	16g/	.	16dd\JJ	.	.	.	.	.	.	.	.	.	.	.	.	.	.	.	.	.	.	.
8BB/	6	8B/	.	16g/	.	16cc\LL	.	8BB/	-stram	8c\	-stra(m)	.	8d\	-stram	.	16cc\LL	-stra(m)	.	4r	.	4r	.	8dd\L	16ccc\LL	.
.	.	.	.	16g/	.	16b\	.	.	.	.	.	.	.	.	.	16b\JJ	.	.	.	.	.	.	.	16bb\	.
8C/J	65	8c/J	.	16g/	.	16a\	.	8C/	sa-	8A\	sa-	.	8e\	sa-	.	16a\LL	sa-	.	.	.	.	.	8ee\J	16aa\	.
.	.	.	.	16g/JJ	.	16g\JJ	.	.	.	.	.	.	.	.	.	16g\JJ	.	.	.	.	.	.	.	16gg\JJ	.
*	*	*	*	*Xtremolo	*	*	*	*	*	*	*	*	*	*	*	*	*	*	*	*	*	*	*	*	*
!LO:PB:g=original	!	!	!	!	!	!	!	!	!	!	!	!	!	!	!	!	!	!	!	!	!	!	!LO:PB:g=original	!	!
=32	=32	=32	=32	=32	=32	=32	=32	=32	=32	=32	=32	=32	=32	=32	=32	=32	=32	=32	=32	=32	=32	=32	=32	=32	=32
!	!	!	!	!LO:TX:t=P:problem:mixed beam	!	!	!	!	!	!	!	!	!	!	!	!	!	!	!	!	!	!	!	!	!
8D\L	8: 3	8d\L	.	16d/LL	.	8f#/L	.	8D\L	-lu-	4d\	-lu-	.	8d\L	-lu-	.	8f#/L	-lu-	.	8r	.	8r	.	2dd\	8ff#\L	.
.	.	.	.	16dd\	.	.	.	.	.	.	.	.	.	.	.	.	.	.	.	.	.	.	.	.	.
8E\	: 3	8e\	.	16d/	.	8g/	.	8E\J	.	.	.	.	8g\J	.	.	8g/J	.	.	16d/LL	.	16d/LL	.	.	8gg\	.
.	.	.	.	16dd\JJ	.	.	.	.	.	.	.	.	.	.	.	.	.	.	16d/JJ	.	16d/JJ	.	.	.	.
*	*	*	*	*rep	*	*	*	*	*	*	*	*	*	*	*	*	*	*	*	*	*	*	*	*	*
!	!	!	!	!LO:TX:t=P:problem:mixed beam	!	!	!	!	!	!	!	!	!	!	!	!	!	!	!	!	!	!	!	!	!
8F#\	: 3	8f#\	.	16d/LL	.	8a/	.	8F#\	-tem	8d\	-tem	.	8a\	-tem	.	8a\	-tem	.	8d/L	.	8d/L	.	.	8aa\	.
.	.	.	.	16dd\	.	.	.	.	.	.	.	.	.	.	.	.	.	.	.	.	.	.	.	.	.
8G\J	: 3	8g\J	.	16d/	.	8b/J	.	8G\	de-	8d\	de	.	8g\	de-	.	8b\	des-	.	8d/J	.	8d/J	.	.	8bb\J	.
.	.	.	.	16dd\JJ	.	.	.	.	.	.	.	.	.	.	.	.	.	.	.	.	.	.	.	.	.
*	*	*	*	*Xrep	*	*	*	*	*	*	*	*	*	*	*	*	*	*	*	*	*	*	*	*	*
!	!	!	!	!	!	!	!	!	!	!LO:LB:g=original	!	!	!	!	!	!	!	!	!	!	!	!	!	!	!
=-	=-	=-	=-	=-	=-	=-	=-	=-	=-	=-	=-	=-	=-	=-	=-	=-	=-	=-	=-	=-	=-	=-	=-	=-	=-
*	*	*	*	*rep	*	*	*	*	*	*	*	*	*2\right	*	*	*2\right	*	*	*	*	*	*	*	*	*
!	!	!	!	!LO:TX:t=P:problem:mixed beam	!	!	!	!	!	!	!	!	!	!	!	!	!	!	!	!	!	!	!	!	!
8A\L	: 3	8a\L	.	16d/LL	.	8cc\L	.	4A\	-scen-	2d\	de-	.	2a\	-scen-	.	2cc\	-cen-	.	2d/	.	2a\	.	2aa\	2ccc\	.
.	.	.	.	16dd\	.	.	.	.	.	.	.	.	.	.	.	.	.	.	.	.	.	.	.	.	.
8F#\	6 5	8f#\	.	16d/	.	16aa\L	.	.	.	.	.	.	.	.	.	.	.	.	.	.	.	.	.	.	.
.	.	.	.	16dd\JJ	.	16gg\JJ	.	.	.	.	.	.	.	.	.	.	.	.	.	.	.	.	.	.	.
*	*	*	*	*Xrep	*	*	*	*	*	*	*	*	*	*	*	*	*	*	*	*	*	*	*	*	*
*	*	*	*	*rep	*	*	*	*	*	*	*	*	*	*	*	*	*	*	*	*	*	*	*	*	*
!	!	!	!	!LO:TX:t=P:problem:mixed beam	!	!	!	!	!	!	!	!	!	!	!	!	!	!	!	!	!	!	!	!	!
8D\	.	8f#\	.	16d/LL	.	16ff#\LL	.	4F#\	-dit	.	.	.	.	.	.	.	.	.	.	.	.	.	.	.	.
.	.	.	.	16dd\	.	16ee\	.	.	.	.	.	.	.	.	.	.	.	.	.	.	.	.	.	.	.
8F#\J	.	8d\J	.	16d/	.	16dd\	.	.	.	.	.	.	.	.	.	.	.	.	.	.	.	.	.	.	.
.	.	.	.	16dd\JJ	.	16cc\JJ	.	.	.	.	.	.	.	.	.	.	.	.	.	.	.	.	.	.	.
*	*	*	*	*Xrep	*	*	*	*	*	*	*	*	*	*	*	*	*	*	*	*	*	*	*	*	*
=33	=33	=33	=33	=33	=33	=33	=33	=33	=33	=33	=33	=33	=33	=33	=33	=33	=33	=33	=33	=33	=33	=33	=33	=33	=33
*tremolo	*	*	*	*tremolo	*	*	*	*	*	*	*	*	*	*	*	*	*	*	*	*	*	*	*	*	*
8G\L	6	8g\L	.	16dd\LL	.	8b\L	.	4G\	de	4d\	-scen-	.	4g\	-dit	.	4b\	-dit	.	4g\	.	4b\	.	4gg\	2bb\	.
.	.	.	.	16dd\	.	.	.	.	.	.	.	.	.	.	.	.	.	.	.	.	.	.	.	.	.
8G\	.	8g\	.	16dd\	.	16bb\L	.	.	.	.	.	.	.	.	.	.	.	.	.	.	.	.	.	.	.
.	.	.	.	16dd\JJ	.	16aa\JJ	.	.	.	.	.	.	.	.	.	.	.	.	.	.	.	.	.	.	.
8G\	.	8e\	.	16b\LL	.	16gg\LL	.	4G\	Cae-	4B\	-dit	.	4g\	de	.	4b\	de	.	4r	.	4r	.	4ee\	.	.
.	.	.	.	16b\	.	16ff#\	.	.	.	.	.	.	.	.	.	.	.	.	.	.	.	.	.	.	.
8G\J	.	8e\J	.	16b\	.	16ee\	.	.	.	.	.	.	.	.	.	.	.	.	.	.	.	.	.	.	.
.	.	.	.	16b\JJ	.	16dd\JJ	.	.	.	.	.	.	.	.	.	.	.	.	.	.	.	.	.	.	.
*Xtremolo	*	*	*	*	*	*	*	*	*	*	*	*	*	*	*	*	*	*	*	*	*	*	*	*	*
!	!	!	!	!	!	!LO:LB:g=original	!	!	!	!	!	!	!	!	!	!	!	!	!	!	!	!	!	!	!
=-	=-	=-	=-	=-	=-	=-	=-	=-	=-	=-	=-	=-	=-	=-	=-	=-	=-	=-	=-	=-	=-	=-	=-	=-	=-
8A\L	#	8A/L	.	16e/LL	.	16dd\LL	.	4A\	.	2A\	de	.	2e\	Cae-	.	(>4cc#X\	Cae-	.	8r	.	8r	.	2ee\	4aa\	.
.	.	.	.	16e/	.	16cc#X\	.	.	.	.	.	.	.	.	.	.	.	.	.	.	.	.	.	.	.
8A\	.	8A/	.	16e/	.	16ee\	.	.	.	.	.	.	.	.	.	.	.	.	8a\L	.	8a\L	.	.	.	.
.	.	.	.	16e/	.	16dd\JJ	.	.	.	.	.	.	.	.	.	.	.	.	.	.	.	.	.	.	.
8c#X\	6 3	8A/	.	16e/	.	16cc#\LL	.	4C#X/	.	.	.	.	.	.	.	4ee\)	.	.	8a\	.	8a\	.	.	4gg\	.
.	.	.	.	16e/	.	16b\	.	.	.	.	.	.	.	.	.	.	.	.	.	.	.	.	.	.	.
8c#\J	.	8A/J	.	16e/	.	16a\	.	.	.	.	.	.	.	.	.	.	.	.	8a\J	.	8a\J	.	.	.	.
.	.	.	.	16e/JJ	.	16g\\JJ	.	.	.	.	.	.	.	.	.	.	.	.	.	.	.	.	.	.	.
*	*	*	*	*Xtremolo	*	*	*	*	*	*	*	*	*	*	*	*	*	*	*	*	*	*	*	*	*
!	!	!	!	!	!	!	!	!	!	!	!	!	!LO:LB:g=original	!	!	!	!	!	!	!	!	!	!	!	!
=34	=34	=34	=34	=34	=34	=34	=34	=34	=34	=34	=34	=34	=34	=34	=34	=34	=34	=34	=34	=34	=34	=34	=34	=34	=34
!	!	!	!	!	!	!LO:TX:t=P:problem:mixed beam	!	!	!	!	!	!	!	!	!	!	!	!	!	!	!	!	!	!	!
8d\L	.	8d\L	.	16d/LL	.	(16f#/LL	.	4D\	-lis	4A\	Cae-	.	4f#\	-lia	.	4dd\	-lis	.	4d/	.	4a\	.	4dd\	4ff#\	.
.	.	.	.	16dd/	.	16dd\)	.	.	.	.	.	.	.	.	.	.	.	.	.	.	.	.	.	.	.
8D\J	.	8f#\	.	16d/	.	16dd'\	.	.	.	.	.	.	.	.	.	.	.	.	.	.	.	.	.	.	.
.	.	.	.	16dd/JJ	.	16dd'\JJ	.	.	.	.	.	.	.	.	.	.	.	.	.	.	.	.	.	.	.
*	*	*	*	*rep	*	*	*	*	*	*	*	*	*	*	*	*	*	*	*	*	*	*	*	*	*
8F#\L	6	8f#\	.	16d/LL	.	(16ee\LL	.	(4F#\	de-	4d\	-lis	.	4a\	de-	.	4dd\	des-	.	4r	.	4r	.	4dd\	4ddd\	.
.	.	.	.	16dd/	.	16dd\)	.	.	.	.	.	.	.	.	.	.	.	.	.	.	.	.	.	.	.
8F#\J	.	8f#\J	.	16d/	.	16dd'\	.	.	.	.	.	.	.	.	.	.	.	.	.	.	.	.	.	.	.
.	.	.	.	16dd/JJ	.	16dd'\JJ	.	.	.	.	.	.	.	.	.	.	.	.	.	.	.	.	.	.	.
*	*	*	*	*Xrep	*	*	*	*	*	*	*	*	*	*	*	*	*	*	*	*	*	*	*	*	*
*	*	*	*	*rep	*	*	*	*	*	*	*	*	*	*	*	*	*	*	*tremolo	*	*tremolo	*	*	*	*
8G\L	6 5	8g\L	.	16d/LL	.	(16ff#\LL	.	4G\)	.	2d\	des-	.	4b\	-scen-	.	4ee\	-cen-	.	8d/L	.	8d/L	.	4ee\	2ddd\	.
.	.	.	.	16dd/	.	16ee\)	.	.	.	.	.	.	.	.	.	.	.	.	.	.	.	.	.	.	.
8G\	.	8g\	.	16d/	.	16ee'\	.	.	.	.	.	.	.	.	.	.	.	.	8d/	.	8d/	.	.	.	.
.	.	.	.	16dd/JJ	.	16ee'\JJ	.	.	.	.	.	.	.	.	.	.	.	.	.	.	.	.	.	.	.
*	*	*	*	*Xrep	*	*	*	*	*	*	*	*	*	*	*	*	*	*	*	*	*	*	*	*	*
*	*	*	*	*rep	*	*	*	*	*	*	*	*	*	*	*	*	*	*	*	*	*	*	*	*	*
8A\	6 4	8a\	.	16d/LL	.	(16gg\LL	.	4A\	-scen-	.	.	.	4a\	.	.	4ff#\	.	.	8d/	.	8d/	.	4ff#\	.	.
.	.	.	.	16dd/	.	16ff#\)	.	.	.	.	.	.	.	.	.	.	.	.	.	.	.	.	.	.	.
8A\J	.	8a\J	.	16d/	.	16ff#'\	.	.	.	.	.	.	.	.	.	.	.	.	8d/J	.	8d/J	.	.	.	.
.	.	.	.	16dd/JJ	.	16ff#'\JJ	.	.	.	.	.	.	.	.	.	.	.	.	.	.	.	.	.	.	.
*	*	*	*	*Xrep	*	*	*	*	*	*	*	*	*	*	*	*	*	*	*Xtremolo	*	*Xtremolo	*	*	*	*
!	!	!	!	!LO:LB:g=original	!	!	!	!LO:LB:g=original	!	!	!	!	!	!	!	!	!	!	!	!	!	!	!	!	!
=35	=35	=35	=35	=35	=35	=35	=35	=35	=35	=35	=35	=35	=35	=35	=35	=35	=35	=35	=35	=35	=35	=35	=35	=35	=35
*	*	*	*	*tremolo	*	*	*	*	*	*	*	*	*	*	*	*	*	*	*	*	*	*	*	*	*
!	!	!	!	!LO:TX:t=P:problem:mixed beam	!	!	!	!	!	!	!	!	!	!	!	!	!	!	!	!	!	!	!	!	!
8B\L	6	8b\L	.	16d/LL	.	(16aa\LL	.	4B\	.	2d\	-cen-	.	4g\	.	.	(>4gg\	.	.	4d/	.	4d/	.	4gg\	2ddd\	.
.	.	.	.	16dd\	.	16gg\)	.	.	.	.	.	.	.	.	.	.	.	.	.	.	.	.	.	.	.
8G\	.	8b\	.	16d/	.	16gg'\	.	.	.	.	.	.	.	.	.	.	.	.	.	.	.	.	.	.	.
.	.	.	.	16dd\	.	16gg'\JJ	.	.	.	.	.	.	.	.	.	.	.	.	.	.	.	.	.	.	.
8F#\	6	8f#\	.	16d/	.	(16bb\LL	.	4F#\	-dit	.	.	.	4a\	.	.	4dd\)	.	.	4d/	.	4a\	.	4aa\	.	.
.	.	.	.	16dd\	.	16aa\)	.	.	.	.	.	.	.	.	.	.	.	.	.	.	.	.	.	.	.
8D\J	.	8f#\J	.	16d/	.	16aa'\	.	.	.	.	.	.	.	.	.	.	.	.	.	.	.	.	.	.	.
.	.	.	.	16dd\JJ	.	16aa'\JJ	.	.	.	.	.	.	.	.	.	.	.	.	.	.	.	.	.	.	.
*	*	*	*	*rep	*	*	*	*	*	*	*	*	*	*	*	*	*	*	*	*	*	*	*	*	*
!	!	!LO:TX:t=P:problem:mixed beam	!	!LO:TX:t=P:problem:mixed beam	!	!	!	!	!	!	!	!	!	!	!	!	!	!	!	!	!	!	!	!	!
8G\L	8_ 3	8g\L	.	16d/LL	.	16bb\LL	.	4G\	.	4d\	-dit	.	4b\	-dit	.	4dd\	-dit	.	8g\L	.	8b\L	.	4bb\	4ddd\	.
.	.	.	.	16dd\	.	16ddd\	.	.	.	.	.	.	.	.	.	.	.	.	.	.	.	.	.	.	.
8B\	_ 3	8G/	.	16d/	.	16eee\	.	.	.	.	.	.	.	.	.	.	.	.	16g\L	.	16g\L	.	.	.	.
.	.	.	.	16dd\	.	16ddd\JJ	.	.	.	.	.	.	.	.	.	.	.	.	16g\JJ	.	16g\JJ	.	.	.	.
8G\	_ 3	8B/	.	16d/	.	16ccc\LL	.	8r	.	8r	.	.	8r	.	.	8r	.	.	8g\L	.	8g\L	.	8dd\L	16cccn\LL	.
.	.	.	.	16dd\	.	16bb\	.	.	.	.	.	.	.	.	.	.	.	.	.	.	.	.	.	16bb\	.
8B\J	_ 3	8G/J	.	16d/	.	16aa\	.	8G\	des-	8B\	des-	.	8g\	des-	.	8dd\	de-	.	8g\J	.	8g\J	.	8ee\J	16aa\	.
.	.	.	.	16dd\JJ	.	16gg\JJ	.	.	.	.	.	.	.	.	.	.	.	.	.	.	.	.	.	16gg\JJ	.
*	*	*	*	*Xrep	*	*	*	*	*	*	*	*	*	*	*	*	*	*	*	*	*	*	*	*	*
!	!	!	!	!	!	!	!	!	!	!	!	!	!	!	!	!LO:LB:g=original	!	!	!LO:LB:g=original	!	!	!	!	!	!
=36	=36	=36	=36	=36	=36	=36	=36	=36	=36	=36	=36	=36	=36	=36	=36	=36	=36	=36	=36	=36	=36	=36	=36	=36	=36
*	*	*	*	*rep	*	*	*	*	*	*	*	*	*	*	*	*	*	*	*	*	*	*	*	*	*
!	!	!	!	!LO:TX:t=P:problem:mixed beam	!	!	!	!	!	!	!	!	!	!	!	!	!	!	!	!	!	!	!	!	!
8D\L	8_ 3	8d\L	.	16d/LL	.	16ff#\LL	.	8D\L	-cen-	2d\	-cen-	.	8f#\L	-cen-	.	2dd\	-scen-	.	8d/L	.	8d/L	.	2dd\	8ff#\L	.
.	.	.	.	16dd\	.	16dd\	.	.	.	.	.	.	.	.	.	.	.	.	.	.	.	.	.	.	.
8E\	_ 3	8e\	.	16d/	.	16gg\	.	8E\	.	.	.	.	8g\	.	.	.	.	.	16d/L	.	16d/L	.	.	8gg\	.
.	.	.	.	16dd\	.	16dd\JJ	.	.	.	.	.	.	.	.	.	.	.	.	16d/JJ	.	16d/JJ	.	.	.	.
8F#\	_ 3	8f#\	.	16d/	.	16aa\LL	.	8F#\	.	.	.	.	8a\	.	.	.	.	.	8d/L	.	8d/L	.	.	8aa\	.
.	.	.	.	16dd\	.	16dd\	.	.	.	.	.	.	.	.	.	.	.	.	.	.	.	.	.	.	.
8G\J	_ 3	8g\J	.	16d/	.	16bb\	.	8G\J	.	.	.	.	8b\J	.	.	.	.	.	8d/J	.	8d/J	.	.	8bb\J	.
.	.	.	.	16dd\JJ	.	16dd\JJ	.	.	.	.	.	.	.	.	.	.	.	.	.	.	.	.	.	.	.
*	*	*	*	*Xrep	*	*	*	*	*	*	*	*	*	*	*	*	*	*	*	*	*	*	*	*	*
*	*	*	*	*rep	*	*	*	*	*	*	*	*	*	*	*	*	*	*	*	*	*	*	*	*	*
!	!	!	!	!LO:TX:t=P:problem:mixed beam	!	!	!	!	!	!	!	!	!	!	!	!	!	!	!	!	!	!	!	!	!
8A\L	6 3	8a\L	.	16d/LL	.	16ccc\LL	.	8A\L	.	4c\	.	.	4a\	-dit	.	4dd\	-dit	.	2d/	.	2a\	.	2aa\	2ccc\	.
.	.	.	.	16dd\	.	16bb\	.	.	.	.	.	.	.	.	.	.	.	.	.	.	.	.	.	.	.
8F#\	6 5	8d\	.	16d/	.	16aa\	.	8F#\J	.	.	.	.	.	.	.	.	.	.	.	.	.	.	.	.	.
.	.	.	.	16dd\	.	16gg\JJ	.	.	.	.	.	.	.	.	.	.	.	.	.	.	.	.	.	.	.
8D\	.	8f#\	.	16d/	.	16ff#\LL	.	8D\	-dit	8c\	-dit	.	8a\	des-	.	8dd\	de-	.	.	.	.	.	.	.	.
.	.	.	.	16dd\	.	16ee\	.	.	.	.	.	.	.	.	.	.	.	.	.	.	.	.	.	.	.
8F#\J	.	8d\J	.	16d/	.	16dd\	.	8F#\	des-	8c\	des-	.	8a\	.	.	8dd\	-scen-	.	.	.	.	.	.	.	.
.	.	.	.	16dd\JJ	.	16cc\JJ	.	.	.	.	.	.	.	.	.	.	.	.	.	.	.	.	.	.	.
*	*	*	*	*Xrep	*	*	*	*	*	*	*	*	*	*	*	*	*	*	*	*	*	*	*	*	*
*	*	*	*	*Xtremolo	*	*	*	*	*	*	*	*	*	*	*	*	*	*	*	*	*	*	*	*	*
!	!	!	!	!	!	!	!	!	!	!	!	!	!	!	!	!	!	!	!	!	!	!	!	!LO:LB:g=original	!
=37	=37	=37	=37	=37	=37	=37	=37	=37	=37	=37	=37	=37	=37	=37	=37	=37	=37	=37	=37	=37	=37	=37	=37	=37	=37
!LO:TX:t=P:problem:mixed beam	!	!LO:TX:t=P:problem:mixed beam	!	!LO:TX:t=P:problem:mixed beam	!	!	!	!LO:TX:t=P:problem:mixed beam	!	!	!	!	!	!	!	!	!	!	!	!	!	!	!	!	!
8G\L	.	8a\L	.	8dd\L	.	16b\LL	.	8G\L	-cen-	4B\	-cen-	.	4g\	-cen-	.	4dd\	-dit	.	8g\L	.	8b\L	.	4ff#\	8bb\L	.
.	.	.	.	.	.	16gg\	.	.	.	.	.	.	.	.	.	.	.	.	.	.	.	.	.	.	.
8B\	6	8B/	.	8g/	.	16bb\	.	8BB/J	.	.	.	.	.	.	.	.	.	.	8g\	.	8g\	.	.	8gg\J	.
.	.	.	.	.	.	16gg\JJ	.	.	.	.	.	.	.	.	.	.	.	.	.	.	.	.	.	.	.
!	!	!	!	!	!	!LO:LB:g=original	!	!	!	!	!	!	!	!	!	!	!	!	!	!	!	!	!	!	!
=-	=-	=-	=-	=-	=-	=-	=-	=-	=-	=-	=-	=-	=-	=-	=-	=-	=-	=-	=-	=-	=-	=-	=-	=-	=-
8c\	3_	8c/	.	8g/	.	16ff#\LL	.	8C/	-dit	8c\	-dit	.	8g\	-dit	.	8ee\	de-	.	8g\	.	8g\	.	8ee\L	8ee\L	.
.	.	.	.	.	.	16ee\	.	.	.	.	.	.	.	.	.	.	.	.	.	.	.	.	.	.	.
8C/J	.	8c/J	.	8ee\J	.	16ccc\	.	8C/	de	8e\	de	.	8g\	de	.	8cc\	-scen-	.	8a\J	.	8a\J	.	8aa\J	8ccc\J	.
.	.	.	.	.	.	16aa\JJ	.	.	.	.	.	.	.	.	.	.	.	.	.	.	.	.	.	.	.
*tremolo	*	*	*	*	*	*	*	*	*	*	*	*	*	*	*	*	*	*	*	*	*	*	*	*	*
8D\L	6 4	8d\L	.	16d/LL	.	4gg\	.	2D\	Cae-	2d\	cae-	.	(>4g\	Cae-	.	4b\	.	.	4g\	.	4b\	.	4gg\	4bb\	.
.	.	.	.	16b/	.	.	.	.	.	.	.	.	.	.	.	.	.	.	.	.	.	.	.	.	.
8D\	5 3	8d\J	.	16d/	.	.	.	.	.	.	.	.	.	.	.	.	.	.	.	.	.	.	.	.	.
.	.	.	.	16b/JJ	.	.	.	.	.	.	.	.	.	.	.	.	.	.	.	.	.	.	.	.	.
8D\	.	8A/L	.	16d/LL	.	4aaT\	.	.	.	.	.	.	4f#\)	.	.	4a\	.	.	4d/	.	4a\	.	4ff#\	4aa\	.
.	.	.	.	16cc/	.	.	.	.	.	.	.	.	.	.	.	.	.	.	.	.	.	.	.	.	.
8D\J	.	8A/J	.	16d/	.	.	.	.	.	.	.	.	.	.	.	.	.	.	.	.	.	.	.	.	.
.	.	.	.	16cc/JJ	.	.	.	.	.	.	.	.	.	.	.	.	.	.	.	.	.	.	.	.	.
*Xtremolo	*	*	*	*	*	*	*	*	*	*	*	*	*	*	*	*	*	*	*	*	*	*	*	*	*
!	!	!LO:LB:g=original	!	!	!	!	!	!	!	!	!	!	!	!	!	!	!	!	!	!	!LO:LB:g=original	!	!	!	!
=38	=38	=38	=38	=38	=38	=38	=38	=38	=38	=38	=38	=38	=38	=38	=38	=38	=38	=38	=38	=38	=38	=38	=38	=38	=38
!	!	!	!	!	!	!	!	!	!	!	!	!	!	!	!	!	!	!	!LO:TX:t=P:problem:mixed beam	!	!	!	!	!	!
8G\L	.	8G/L	.	8b/L	.	16gg\LL	.	4G\	-lis	4d\	-lis	.	4g\	-lis	.	4b\	-dit	.	8B/L	.	8g\L	.	8gg\L	4gg\	.
.	.	.	.	.	.	16dd\	.	.	.	.	.	.	.	.	.	.	.	.	.	.	.	.	.	.	.
8BB/	6	8B/	.	8g/	.	(16dd\	.	.	.	.	.	.	.	.	.	.	.	.	8g\	.	8g\	.	8dd\	.	.
.	.	.	.	.	.	16dd#X\JJ)	.	.	.	.	.	.	.	.	.	.	.	.	.	.	.	.	.	.	.
8C/	5	8c/	.	8g/	.	16ee\LL	.	8r	.	8r	.	.	8r	.	.	8r	.	.	8g\	.	8g\	.	8ee\	4gg\	.
.	.	.	.	.	.	16cc\	.	.	.	.	.	.	.	.	.	.	.	.	.	.	.	.	.	.	.
8C/J	6	8c/J	.	8g/J	.	16b\	.	8C/	de	8e\	de	.	8g\	de	.	8cc\	de	.	8g\J	.	8g\J	.	8cc\J	.	.
.	.	.	.	.	.	16a\JJ	.	.	.	.	.	.	.	.	.	.	.	.	.	.	.	.	.	.	.
!LO:LB:g=original	!	!	!	!	!	!	!	!	!	!	!	!	!	!	!	!	!	!	!	!	!	!	!	!	!
=-	=-	=-	=-	=-	=-	=-	=-	=-	=-	=-	=-	=-	=-	=-	=-	=-	=-	=-	=-	=-	=-	=-	=-	=-	=-
*tremolo	*	*tremolo	*	*	*	*	*	*	*	*	*	*	*	*	*	*	*	*	*	*	*	*	*	*	*
!	!	!	!	!	!	!LO:TX:t=P:problem:mixed beam	!	!	!	!	!	!	!	!	!	!	!	!	!	!	!	!	!	!	!
8D\L	6 4	8d\L	.	8g/L	.	8b\L	.	2D\	Cae-	2d\	cae-	.	(>4g\	Cae-	.	4b\	Cae-	.	4B/	.	4g\	.	4b\	4gg\	.
8D\	5 3	8d\	.	8b/	.	8gg\	.	.	.	.	.	.	.	.	.	.	.	.	.	.	.	.	.	.	.
8D\	.	8d\	.	8d/	.	8d/	.	.	.	.	.	.	4f#\)	.	.	4a\	.	.	4d/	.	4a\	.	4a\	4ff#\	.
8D\J	.	8d\J	.	8a/J	.	8ff#\J	.	.	.	.	.	.	.	.	.	.	.	.	.	.	.	.	.	.	.
*Xtremolo	*	*Xtremolo	*	*	*	*	*	*	*	*	*	*	*	*	*	*	*	*	*	*	*	*	*	*	*
!	!	!	!	!	!	!	!	!	!	!	!	!	!LO:LB:g=original	!	!	!	!	!	!	!	!	!	!	!	!
=39	=39	=39	=39	=39	=39	=39	=39	=39	=39	=39	=39	=39	=39	=39	=39	=39	=39	=39	=39	=39	=39	=39	=39	=39	=39
!	!	!LO:TX:t=P:problem:mixed beam	!	!	!	!	!	!	!	!	!	!	!	!	!	!	!	!	!	!	!	!	!	!	!
8G\L	8 3_	8g\L	.	8d/L 8b	.	8d/L 8b 8gg	.	4G\	-lis	4d\	-lis	.	4g\	-lis	.	4b\	-lis.	.	8B/L	.	8g\L	.	8b\L	8gg\L	.
8GG/	.	8G/	.	8d/ 8b	.	8d/ 8b 8gg	.	.	.	.	.	.	.	.	.	.	.	.	8B/	.	8g\	.	8b\	8gg\	.
8GG/J	x	8G/J	.	8d/J 8b	.	8d/J 8b 8gg	.	4r	.	4r	.	.	4r	.	.	4r	.	.	8B/J	.	8g\J	.	8b\J	8gg\J	.
8r	.	8r	.	8r	.	8r	.	.	.	.	.	.	.	.	.	.	.	.	8r	.	8r	.	8r	8r	.
2r	.	2r	.	2r	.	2r	.	2r	.	2r	.	.	2r	.	.	2r	.	.	2r	.	2r	.	2r	2r	.
!LO:LB:g=original	!	!	!	!LO:LB:g=original	!	!LO:LB:g=original	!	!LO:PB:g=original	!	!LO:LB:g=original	!	!	!LO:LB:g=original	!	!	!LO:LB:g=original	!	!	!LO:PB:g=original	!	!LO:LB:g=original	!	!LO:LB:g=original	!LO:LB:g=original	!
==	==	==	==	==	==	==	==	==	==	==	==	==	==	==	==	==	==	==	==	==	==	==	==	==	==
*-	*-	*-	*-	*-	*-	*-	*-	*-	*-	*-	*-	*-	*-	*-	*-	*-	*-	*-	*-	*-	*-	*-	*-	*-	*-
!!!system-decoration: [(s1,s2)][(s3,s4)][(s5,s6,s7,s8)][(s9,s10,s11)][(s12)]
!!!RDF**kern: < = below
!!!RDF**kern: > = above
!!!RDF**kern: | = vertical stroke
!!!AIN: 1 alto 1 bass 2 cor 2 flt 1 organ 1 soprn 1 tenor 1 viola 2 violn
!!!ENC: Anastazja Marusiak
!!!END: 2021-12-07
!!!ENC: Marta Chmielewska
!!!END: 2021-12-10
